(Project Piccino)
(Created by Estlcam version 11 build 11,244)
(Machining time about 00:27:16 hours)

(Required tools:)
(Kinfe)
(End mill 0,8mm)
(End mill 2mm)

G90
G91.1
M03 S24000
G00 Z5.0000


(No. 1: Parte 1)
G00 X10.3903 Y15.7585
G00 Z0.5000
G01 Z0.0000 F350 S24000
G01 Z-0.2000
G02 X11.5033 Y15.0444 I-24.7160 J-39.7469
G02 X13.8585 Y13.5000 I-102.9318 J-159.5426
G01 X13.8693 Y13.4972
G01 X23.0859 Y13.4966
G03 X23.1386 Y11.7267 I22.4458 J-0.2175
G03 X22.7481 Y11.4634 I0.7988 J-1.6058
G03 X22.2717 Y10.7344 I1.1105 J-1.2459
G03 X22.3119 Y9.7220 I1.5963 J-0.4435
G03 X23.4109 Y8.8253 I1.3819 J0.5717
G03 X24.3196 Y8.9443 I0.2220 J1.8329
G03 X24.5083 Y11.5586 I-0.5956 J1.3569
G02 X24.3295 Y11.6887 I0.4806 J0.8485
G02 X24.2280 Y11.9473 I0.3122 J0.2717
G02 X24.2046 Y12.7953 I8.7200 J0.6656
G01 X24.2018 Y13.4965
G01 X38.2832
G03 X38.3350 Y11.7314 I22.6082 J-0.2200
G01 X38.0783 Y11.5684
G03 X37.3619 Y10.3548 I0.7735 J-1.2748
G03 X38.1031 Y9.0211 I1.4913 J-0.0440
G03 X38.5095 Y8.8478 I0.7200 J1.1250
G03 X39.3067 Y8.8675 I0.3452 J2.1734
G03 X40.0168 Y9.3230 I-0.3508 J1.3280
G03 X40.3468 Y10.1583 I-0.9900 J0.8740
G03 X40.3277 Y10.6460 I-2.0939 J0.1620
G03 X40.0291 Y11.2319 I-1.6153 J-0.4542
G03 X39.6141 Y11.6271 I-1.3228 J-0.9737
G03 X39.4869 Y11.6802 I-0.3416 J-0.6385
G02 X39.4462 Y11.7611 I0.0776 J0.0898
G02 X39.4125 Y12.1699 I2.3958 J0.4033
G02 X39.4019 Y13.4594 I27.6408 J0.8715
G01 X39.4110 Y13.5001
G02 X52.2817 Y13.6931 I59.3940 J-3531.7318
G02 X52.3396 Y11.7215 I-187.5136 J-6.4924
G03 X51.9202 Y11.4288 I0.7646 J-1.5422
G03 X51.4813 Y10.7342 I1.1496 J-1.2124
G03 X51.5216 Y9.7219 I1.5963 J-0.4435
G03 X52.5222 Y8.8477 I1.3918 J0.5833
G03 X53.3144 Y8.8663 I0.3451 J2.1800
G03 X54.0611 Y9.3346 I-0.3989 J1.4654
G03 X54.3155 Y10.8238 I-1.0971 J0.9538
G03 X53.6475 Y11.6046 I-1.4482 J-0.5628
G02 X53.4972 Y11.7249 I0.2954 J0.5235
G02 X53.4471 Y11.9142 I0.3720 J0.1996
G02 X53.4157 Y12.9223 I14.0327 J0.9424
G01 X53.4119 Y13.6658
G01 X66.5620
G01 Y11.7268
G01 X66.3093 Y11.5656
G03 X65.7310 Y9.6749 I0.8002 J-1.2785
G03 X66.2440 Y9.0788 I1.4036 J0.6891
G03 X67.0554 Y8.8213 I0.8059 J1.1326
G03 X67.7541 Y8.9399 I0.0925 J1.5724
G03 X68.4882 Y9.7035 I-0.6448 J1.3546
G03 X68.5870 Y10.3780 I-1.5987 J0.5786
G03 X68.5199 Y10.7875 I-0.9796 J0.0498
G03 X67.8832 Y11.6055 I-1.7521 J-0.7069
G03 X67.6780 Y11.6897 I-0.2890 J-0.4127
G01 Y13.7184
G01 X70.3930 Y13.6876
G03 X72.7697 Y13.6753 I1.6184 J83.1205
G03 X73.2328 Y13.7111 I-0.0109 J3.1483
G03 X73.4454 Y13.8037 I-0.0423 J0.3877
G03 X73.5417 Y13.9588 I-0.4294 J0.3739
G01 X73.5529 Y14.0047
G03 X73.5808 Y14.7906 I-8.8011 J0.7056
G03 X73.5988 Y22.6198 I-760.6171 J5.6629
G01 X73.5980 Y24.4903
G01 X73.5966 Y26.6110
G01 X73.5946 Y28.9974
G01 X73.5921 Y31.6651
G01 X73.5891 Y34.6298
G01 X73.5855 Y37.9069
G01 X73.5814 Y41.5122
G01 X73.5772 Y45.1011
G01 X73.5733 Y48.3652
G01 X73.5696 Y51.3199
G01 X73.5660 Y53.9803
G03 X73.5307 Y67.2103 I-2457.7054 J0.0614
G03 X73.5066 Y68.7574 I-61.0105 J-0.1774
G01 X73.4990 Y68.9072
G03 X73.4765 Y69.0439 I-0.3153 J0.0182
G03 X67.2397 Y77.5936 I-6221.0867 J-4531.5439
G02 X67.0354 Y77.8833 I2.5120 J1.9880
G03 X66.8394 Y78.0342 I-0.2452 J-0.1159
G03 X66.3479 Y78.0877 I-0.5174 J-2.4680
G03 X63.8086 Y78.1133 I-2.0550 J-77.9080
G03 X61.7352 Y78.1137 I-2.3025 J-6240.2504
G01 X56.7894 Y78.1147
G03 X54.6653 Y80.0990 I-96.3127 J-100.9669
G03 X54.3693 Y80.3579 I-3.7083 J-3.9405
G03 X54.1339 Y80.4171 I-0.2357 J-0.4394
G03 X52.8472 Y80.4397 I-1.0618 J-23.8419
G02 X45.4327 Y80.4963 I-0.0091 J484.3389
G03 X45.2188 Y80.8487 I-2.0512 J-1.0041
G03 X44.5088 Y81.3800 I-1.2106 J-0.8775
G03 X44.0029 Y81.4325 I-0.4265 J-1.6489
G03 X43.6167 Y81.3922 I-0.0694 J-1.2060
G03 X42.5666 Y80.3031 I0.5219 J-1.5540
G03 X42.5406 Y79.8388 I2.0312 J-0.3468
G03 X42.6343 Y79.3632 I1.0425 J-0.0415
G03 X43.3840 Y78.5925 I1.4805 J0.6902
G01 X43.5707 Y78.4979
G01 X43.5831 Y78.0345
G01 X43.5956 Y77.5687
G03 X43.1979 Y77.2806 I1.3410 J-2.2689
G03 X42.9356 Y76.9626 I1.0557 J-1.1384
G01 X42.7778 Y76.7152
G03 X31.2715 Y76.6592 I0.9040 J-1368.2390
G02 X31.2903 Y78.1923 I27.1967 J0.4325
G02 X31.3241 Y78.6278 I8.7000 J-0.4571
G03 X32.1949 Y79.6358 I-0.6228 J1.4181
G03 X32.2177 Y80.2046 I-2.5143 J0.3856
G03 X32.0818 Y80.6801 I-1.0682 J-0.0482
G03 X31.2360 Y81.4572 I-1.4202 J-0.6968
G03 X30.8003 Y81.5180 I-0.3856 J-1.1719
G03 X30.3776 Y81.4914 I-0.0999 J-1.7849
G03 X29.2738 Y80.3877 I0.4614 J-1.5653
G03 X29.2499 Y79.9309 I1.9649 J-0.3317
G03 X29.3351 Y79.4547 I1.2103 J-0.0293
G03 X30.0005 Y78.7290 I1.4624 J0.6729
G01 X30.1991 Y78.6169
G02 X30.1389 Y76.6072 I-94.4248 J1.8233
G01 X30.1322 Y76.5860
G02 X25.6871 Y75.8206 I-80.5197 J454.3188
G01 X24.9177 Y75.6893
G01 X24.0656 Y75.5439
G01 X23.1264 Y75.3837
G01 X19.7642 Y74.8102
G03 X15.7115 Y74.8012 I-1.4142 J-276.1686
G03 X14.9181 Y74.7716 I-0.0731 J-8.6844
G03 X14.7527 Y74.6861 I0.0131 J-0.2283
G03 X14.0924 Y73.9816 I8.7959 J-8.9055
G03 X12.5990 Y72.3356 I109.1196 J-100.5064
G03 X12.4235 Y72.1157 I1.0196 J-0.9935
G01 X12.4110 Y72.0565
G03 X12.3946 Y71.1307 I12.6776 J-0.6872
G03 X12.4908 Y68.0700 I59.8972 J0.3510
G01 X12.5037 Y67.9177
G01 X12.5169 Y67.8093
G01 X12.5318 Y67.7478
G03 X12.6906 Y67.5581 I0.3594 J0.1396
G03 X12.9527 Y67.4891 I0.3041 J0.6224
G03 X13.8966 Y67.4820 I0.5390 J8.9118
G01 X14.0812 Y67.4862
G01 X15.2243 Y67.5132
G03 X15.4637 Y67.2445 I1.1470 J0.7808
G03 X16.2684 Y66.9277 I0.8595 J1.0030
G03 X17.0228 Y67.2242 I0.0187 J1.0604
G03 X17.3166 Y67.5195 I-4.2977 J4.5689
G01 X19.3469 Y67.5680
G02 X19.4070 Y58.6096 I-963.1323 J-10.9366
G03 X19.4327 Y58.0098 I6.4727 J-0.0223
G03 X19.4855 Y57.7696 I0.8297 J0.0564
G03 X19.6497 Y57.6094 I0.3021 J0.1453
G02 X33.0777 Y48.5950 I-2935.3406 J-4387.0663
G01 X33.0885 Y48.5921
G01 X35.2856 Y48.5916
G03 X35.4857 Y48.3281 I1.3532 J0.8202
G03 X36.3835 Y47.9635 I0.8858 J0.8938
G03 X37.3696 Y48.6332 I-0.0430 J1.1241
G03 X35.8785 Y50.2020 I-1.0481 J0.4968
G03 X35.4033 Y49.8491 I0.4378 J-1.0858
G01 X35.2897 Y49.7076
G01 X33.4169 Y49.7086
G01 X26.9737 Y54.0397
G01 X20.5397 Y58.3645
G02 X20.4757 Y67.3104 I959.0223 J11.3362
G03 X20.4464 Y68.1368 I-10.1489 J0.0539
G03 X20.3843 Y68.4357 I-0.9658 J-0.0445
G03 X20.2234 Y68.5896 I-0.2832 J-0.1350
G03 X19.8837 Y68.6676 I-0.3162 J-0.5987
G03 X18.6476 Y68.6572 I-0.3981 J-26.1121
G01 X17.2974 Y68.6290
G03 X17.0610 Y68.9314 I-1.9999 J-1.3198
G03 X16.3727 Y69.2399 I-0.7272 J-0.7004
G03 X15.9366 Y69.2120 I-0.1325 J-1.3509
G03 X15.2813 Y68.7264 I0.4148 J-1.2444
G02 X15.0951 Y68.6351 I-0.1927 J0.1576
G02 X14.2573 Y68.5938 I-0.8112 J7.9239
G02 X13.5811 Y68.5882 I-2.4404 J254.4718
G02 X13.5158 Y70.4092 I41.1865 J2.3872
G01 X13.5139 Y70.5073
G01 X13.4917 Y71.6727
G01 X14.4146 Y72.6845
G01 X15.3361 Y73.6948
G01 X19.8356
G02 X26.5706 Y74.8442 I1634.3473 J-9556.5948
G01 X26.8907 Y74.8987
G01 X30.7390 Y75.5543
G01 X36.7928 Y75.5838
G01 X42.8116 Y75.6132
G03 X42.9849 Y75.2830 I0.6573 J0.1345
G03 X43.8303 Y74.7203 I1.3840 J1.1627
G03 X44.3463 Y74.6945 I0.3547 J1.9241
G03 X45.3114 Y75.1500 I-0.0431 J1.3413
G03 X45.6804 Y76.0287 I-0.9506 J0.9162
G03 X45.6568 Y76.5318 I-2.0154 J0.1574
G03 X45.1993 Y77.2925 I-1.5966 J-0.4423
G03 X44.8068 Y77.5604 I-1.0287 J-1.0858
G02 X44.7164 Y77.6137 I0.5032 J0.9569
G02 X44.7032 Y77.7047 I0.3506 J0.0974
G02 X44.6765 Y78.5549 I16.8913 J0.9549
G03 X45.0633 Y78.8387 I-1.1628 J1.9899
G03 X45.3668 Y79.2353 I-0.9964 J1.0770
G01 X45.4353 Y79.3674
G02 X50.7628 Y79.3393 I-0.2553 J-552.8875
G01 X53.8807 Y79.3114
G03 X56.1369 Y77.2044 I121.9894 J128.3681
G03 X56.2688 Y77.0888 I1.6098 J1.7047
G03 X56.4312 Y77.0533 I0.1626 J0.3537
G03 X58.0278 Y77.0155 I1.4958 J29.4300
G03 X66.3041 Y76.9755 I12.6217 J1759.1927
G01 X69.3684 Y72.7826
G01 X72.4380 Y68.5823
G01 X72.5010 Y14.7820
G02 X67.6782 Y14.8371 I-0.0885 J203.3151
G01 Y16.5199
G03 X68.5593 Y17.5332 I-0.6144 J1.4240
G03 X68.5821 Y18.1020 I-2.5144 J0.3856
G03 X68.4461 Y18.5776 I-1.0681 J-0.0482
G03 X67.6004 Y19.3547 I-1.4202 J-0.6969
G03 X67.1647 Y19.4155 I-0.3856 J-1.1718
G03 X66.7419 Y19.3889 I-0.0999 J-1.7846
G03 X65.6381 Y18.2852 I0.4614 J-1.5653
G03 X65.6142 Y17.8284 I1.9649 J-0.3317
G03 X65.6994 Y17.3521 I1.2103 J-0.0293
G03 X66.3638 Y16.6270 I1.4622 J0.6727
G01 X66.5622 Y16.5150
G01 Y14.7819
G01 X53.4119
G02 X53.4289 Y16.1864 I24.3994 J0.4075
G02 X53.4713 Y16.4875 I1.0757 J0.0019
G02 X53.6017 Y16.5978 I0.2531 J-0.1670
G03 X54.3266 Y17.3754 I-0.7493 J1.4251
G03 X54.4036 Y17.9065 I-1.3593 J0.4683
G03 X54.3714 Y18.3120 I-1.4429 J0.0896
G03 X53.2745 Y19.3887 I-1.5602 J-0.4923
G03 X52.8102 Y19.4148 I-0.3468 J-2.0310
G03 X52.3346 Y19.3210 I-0.0415 J-1.0425
G03 X51.5464 Y18.5284 I0.6839 J-1.4682
G03 X51.4306 Y17.9921 I0.9874 J-0.4940
G03 X51.4572 Y17.5332 I2.0299 J-0.1123
G03 X52.1950 Y16.5930 I1.4889 J0.4088
G01 X52.3393 Y16.5194
G02 X52.2767 Y14.8335 I-48.1790 J0.9445
G01 X52.2430 Y14.8264
G02 X40.1746 Y14.6260 I-48.5427 J2559.9083
G03 X39.4260 Y14.6142 I12.7859 J-835.3484
G02 X39.4062 Y14.7450 I0.4227 J0.1307
G02 X39.4310 Y16.3044 I17.0837 J0.5077
G02 X39.4623 Y16.4963 I0.7856 J-0.0297
G02 X39.5694 Y16.5849 I0.1706 J-0.0972
G03 X40.1411 Y17.1186 I-0.7224 J1.3469
G03 X40.3408 Y17.6478 I-0.9688 J0.6679
G03 X40.3229 Y18.2810 I-2.5500 J0.2448
G03 X39.5048 Y19.2933 I-1.5742 J-0.4355
G03 X38.9700 Y19.4149 I-0.4945 J-0.9379
G03 X38.5330 Y19.3948 I-0.1175 J-2.2108
G03 X37.9740 Y19.1181 I0.3988 J-1.5088
G03 X37.4019 Y18.2852 I1.0065 J-1.3042
G03 X37.3780 Y17.8284 I1.9650 J-0.3317
G03 X37.4632 Y17.3521 I1.2103 J-0.0293
G03 X38.1337 Y16.6235 I1.4633 J0.6738
G01 X38.3367 Y16.5089
G03 X38.2836 Y14.6126 I26.8971 J-1.7026
G01 X24.2019
G02 X24.2208 Y16.1370 I26.4408 J0.4348
G02 X24.2536 Y16.5202 I6.2505 J-0.3419
G03 X24.6095 Y16.7361 I-1.0155 J2.0754
G03 X25.1413 Y17.4464 I-0.8765 J1.2106
G03 X25.1938 Y17.9523 I-1.6489 J0.4265
G03 X25.1535 Y18.3385 I-1.2059 J0.0694
G03 X24.0644 Y19.3886 I-1.5540 J-0.5218
G03 X23.6001 Y19.4146 I-0.3468 J-2.0310
G03 X23.1245 Y19.3209 I-0.0415 J-1.0424
G03 X22.3363 Y18.5282 I0.6839 J-1.4682
G03 X22.2205 Y17.9919 I0.9875 J-0.4940
G03 X22.2471 Y17.5331 I2.0316 J-0.1124
G03 X22.9902 Y16.5902 I1.4872 J0.4078
G01 X23.1392 Y16.5142
G03 X23.0859 Y14.6125 I27.0361 J-1.7103
G01 X18.6591 Y14.6129
G01 X14.1973 Y14.6133
G01 X12.7386 Y15.5669
G01 X11.2902 Y16.5138
G01 X11.2903 Y18.5621
G01 X11.2904 Y20.6057
G03 X15.7352 Y22.7081 I-192.2838 J412.2705
G03 X16.5933 Y23.1496 I-4.9367 J10.6508
G03 X16.7487 Y23.2766 I-0.1912 J0.3925
G03 X16.8269 Y23.5752 I-0.5068 J0.2923
G03 X16.8359 Y24.5433 I-15.1483 J0.6243
G03 X17.1281 Y24.8109 I-1.2556 J1.6642
G03 X17.3611 Y25.4340 I-0.7071 J0.6196
G03 X15.7822 Y26.4011 I-1.0502 J0.0579
G03 X15.5816 Y24.7202 I0.5426 J-0.9172
G01 X15.7456 Y24.5549
G01 X15.7293 Y24.2369
G01 X15.7133 Y23.9268
G03 X11.2792 Y21.8277 I190.9522 J-409.1067
G03 X10.4195 Y21.3854 I5.0266 J-10.8257
G03 X10.2625 Y21.2580 I0.1950 J-0.4008
G03 X10.1984 Y21.0071 I0.4563 J-0.2504
G03 X10.1755 Y19.7709 I21.4728 J-1.0156
G03 X10.1834 Y16.6266 I203.1634 J-1.0597
G03 X10.2223 Y16.0355 I4.1039 J-0.0267
G03 X10.2984 Y15.8310 I0.4316 J0.0442
G03 X10.3903 Y15.7585 I0.2347 J0.2031
G01 Z-0.2500
G02 X11.5033 Y15.0444 I-24.7160 J-39.7469
G02 X13.8585 Y13.5000 I-102.9318 J-159.5426
G01 X13.8693 Y13.4972
G01 X23.0859 Y13.4966
G03 X23.1386 Y11.7267 I22.4458 J-0.2175
G03 X22.7481 Y11.4634 I0.7988 J-1.6058
G03 X22.2717 Y10.7344 I1.1105 J-1.2459
G03 X22.3119 Y9.7220 I1.5963 J-0.4435
G03 X23.4109 Y8.8253 I1.3819 J0.5717
G03 X24.3196 Y8.9443 I0.2220 J1.8329
G03 X24.5083 Y11.5586 I-0.5956 J1.3569
G02 X24.3295 Y11.6887 I0.4806 J0.8485
G02 X24.2280 Y11.9473 I0.3122 J0.2717
G02 X24.2046 Y12.7953 I8.7200 J0.6656
G01 X24.2018 Y13.4965
G01 X38.2832
G03 X38.3350 Y11.7314 I22.6082 J-0.2200
G01 X38.0783 Y11.5684
G03 X37.3619 Y10.3548 I0.7735 J-1.2748
G03 X38.1031 Y9.0211 I1.4913 J-0.0440
G03 X38.5095 Y8.8478 I0.7200 J1.1250
G03 X39.3067 Y8.8675 I0.3452 J2.1734
G03 X40.0168 Y9.3230 I-0.3508 J1.3280
G03 X40.3468 Y10.1583 I-0.9900 J0.8740
G03 X40.3277 Y10.6460 I-2.0939 J0.1620
G03 X40.0291 Y11.2319 I-1.6153 J-0.4542
G03 X39.6141 Y11.6271 I-1.3228 J-0.9737
G03 X39.4869 Y11.6802 I-0.3416 J-0.6385
G02 X39.4462 Y11.7611 I0.0776 J0.0898
G02 X39.4125 Y12.1699 I2.3958 J0.4033
G02 X39.4019 Y13.4594 I27.6408 J0.8715
G01 X39.4110 Y13.5001
G02 X52.2817 Y13.6931 I59.3940 J-3531.7318
G02 X52.3396 Y11.7215 I-187.5136 J-6.4924
G03 X51.9202 Y11.4288 I0.7646 J-1.5422
G03 X51.4813 Y10.7342 I1.1496 J-1.2124
G03 X51.5216 Y9.7219 I1.5963 J-0.4435
G03 X52.5222 Y8.8477 I1.3918 J0.5833
G03 X53.3144 Y8.8663 I0.3451 J2.1800
G03 X54.0611 Y9.3346 I-0.3989 J1.4654
G03 X54.3155 Y10.8238 I-1.0971 J0.9538
G03 X53.6475 Y11.6046 I-1.4482 J-0.5628
G02 X53.4972 Y11.7249 I0.2954 J0.5235
G02 X53.4471 Y11.9142 I0.3720 J0.1996
G02 X53.4157 Y12.9223 I14.0327 J0.9424
G01 X53.4119 Y13.6658
G01 X66.5620
G01 Y11.7268
G01 X66.3093 Y11.5656
G03 X65.7310 Y9.6749 I0.8002 J-1.2785
G03 X66.2440 Y9.0788 I1.4036 J0.6891
G03 X67.0554 Y8.8213 I0.8059 J1.1326
G03 X67.7541 Y8.9399 I0.0925 J1.5724
G03 X68.4882 Y9.7035 I-0.6448 J1.3546
G03 X68.5870 Y10.3780 I-1.5987 J0.5786
G03 X68.5199 Y10.7875 I-0.9796 J0.0498
G03 X67.8832 Y11.6055 I-1.7521 J-0.7069
G03 X67.6780 Y11.6897 I-0.2890 J-0.4127
G01 Y13.7184
G01 X70.3930 Y13.6876
G03 X72.7697 Y13.6753 I1.6184 J83.1205
G03 X73.2328 Y13.7111 I-0.0109 J3.1483
G03 X73.4454 Y13.8037 I-0.0423 J0.3877
G03 X73.5417 Y13.9588 I-0.4294 J0.3739
G01 X73.5529 Y14.0047
G03 X73.5808 Y14.7906 I-8.8011 J0.7056
G03 X73.5988 Y22.6198 I-760.6171 J5.6629
G01 X73.5980 Y24.4903
G01 X73.5966 Y26.6110
G01 X73.5946 Y28.9974
G01 X73.5921 Y31.6651
G01 X73.5891 Y34.6298
G01 X73.5855 Y37.9069
G01 X73.5814 Y41.5122
G01 X73.5772 Y45.1011
G01 X73.5733 Y48.3652
G01 X73.5696 Y51.3199
G01 X73.5660 Y53.9803
G03 X73.5307 Y67.2103 I-2457.7054 J0.0614
G03 X73.5066 Y68.7574 I-61.0105 J-0.1774
G01 X73.4990 Y68.9072
G03 X73.4765 Y69.0439 I-0.3153 J0.0182
G03 X67.2397 Y77.5936 I-6221.0867 J-4531.5439
G02 X67.0354 Y77.8833 I2.5120 J1.9880
G03 X66.8394 Y78.0342 I-0.2452 J-0.1159
G03 X66.3479 Y78.0877 I-0.5174 J-2.4680
G03 X63.8086 Y78.1133 I-2.0550 J-77.9080
G03 X61.7352 Y78.1137 I-2.3025 J-6240.2504
G01 X56.7894 Y78.1147
G03 X54.6653 Y80.0990 I-96.3127 J-100.9669
G03 X54.3693 Y80.3579 I-3.7083 J-3.9405
G03 X54.1339 Y80.4171 I-0.2357 J-0.4394
G03 X52.8472 Y80.4397 I-1.0618 J-23.8419
G02 X45.4327 Y80.4963 I-0.0091 J484.3389
G03 X45.2188 Y80.8487 I-2.0512 J-1.0041
G03 X44.5088 Y81.3800 I-1.2106 J-0.8775
G03 X44.0029 Y81.4325 I-0.4265 J-1.6489
G03 X43.6167 Y81.3922 I-0.0694 J-1.2060
G03 X42.5666 Y80.3031 I0.5219 J-1.5540
G03 X42.5406 Y79.8388 I2.0312 J-0.3468
G03 X42.6343 Y79.3632 I1.0425 J-0.0415
G03 X43.3840 Y78.5925 I1.4805 J0.6902
G01 X43.5707 Y78.4979
G01 X43.5831 Y78.0345
G01 X43.5956 Y77.5687
G03 X43.1979 Y77.2806 I1.3410 J-2.2689
G03 X42.9356 Y76.9626 I1.0557 J-1.1384
G01 X42.7778 Y76.7152
G03 X31.2715 Y76.6592 I0.9040 J-1368.2390
G02 X31.2903 Y78.1923 I27.1967 J0.4325
G02 X31.3241 Y78.6278 I8.7000 J-0.4571
G03 X32.1949 Y79.6358 I-0.6228 J1.4181
G03 X32.2177 Y80.2046 I-2.5143 J0.3856
G03 X32.0818 Y80.6801 I-1.0682 J-0.0482
G03 X31.2360 Y81.4572 I-1.4202 J-0.6968
G03 X30.8003 Y81.5180 I-0.3856 J-1.1719
G03 X30.3776 Y81.4914 I-0.0999 J-1.7849
G03 X29.2738 Y80.3877 I0.4614 J-1.5653
G03 X29.2499 Y79.9309 I1.9649 J-0.3317
G03 X29.3351 Y79.4547 I1.2103 J-0.0293
G03 X30.0005 Y78.7290 I1.4624 J0.6729
G01 X30.1991 Y78.6169
G02 X30.1389 Y76.6072 I-94.4248 J1.8233
G01 X30.1322 Y76.5860
G02 X25.6871 Y75.8206 I-80.5197 J454.3188
G01 X24.9177 Y75.6893
G01 X24.0656 Y75.5439
G01 X23.1264 Y75.3837
G01 X19.7642 Y74.8102
G03 X15.7115 Y74.8012 I-1.4142 J-276.1686
G03 X14.9181 Y74.7716 I-0.0731 J-8.6844
G03 X14.7527 Y74.6861 I0.0131 J-0.2283
G03 X14.0924 Y73.9816 I8.7959 J-8.9055
G03 X12.5990 Y72.3356 I109.1196 J-100.5064
G03 X12.4235 Y72.1157 I1.0196 J-0.9935
G01 X12.4110 Y72.0565
G03 X12.3946 Y71.1307 I12.6776 J-0.6872
G03 X12.4908 Y68.0700 I59.8972 J0.3510
G01 X12.5037 Y67.9177
G01 X12.5169 Y67.8093
G01 X12.5318 Y67.7478
G03 X12.6906 Y67.5581 I0.3594 J0.1396
G03 X12.9527 Y67.4891 I0.3041 J0.6224
G03 X13.8966 Y67.4820 I0.5390 J8.9118
G01 X14.0812 Y67.4862
G01 X15.2243 Y67.5132
G03 X15.4637 Y67.2445 I1.1470 J0.7808
G03 X16.2684 Y66.9277 I0.8595 J1.0030
G03 X17.0228 Y67.2242 I0.0187 J1.0604
G03 X17.3166 Y67.5195 I-4.2977 J4.5689
G01 X19.3469 Y67.5680
G02 X19.4070 Y58.6096 I-963.1323 J-10.9366
G03 X19.4327 Y58.0098 I6.4727 J-0.0223
G03 X19.4855 Y57.7696 I0.8297 J0.0564
G03 X19.6497 Y57.6094 I0.3021 J0.1453
G02 X33.0777 Y48.5950 I-2935.3406 J-4387.0663
G01 X33.0885 Y48.5921
G01 X35.2856 Y48.5916
G03 X35.4857 Y48.3281 I1.3532 J0.8202
G03 X36.3835 Y47.9635 I0.8858 J0.8938
G03 X37.3696 Y48.6332 I-0.0430 J1.1241
G03 X35.8785 Y50.2020 I-1.0481 J0.4968
G03 X35.4033 Y49.8491 I0.4378 J-1.0858
G01 X35.2897 Y49.7076
G01 X33.4169 Y49.7086
G01 X26.9737 Y54.0397
G01 X20.5397 Y58.3645
G02 X20.4757 Y67.3104 I959.0223 J11.3362
G03 X20.4464 Y68.1368 I-10.1489 J0.0539
G03 X20.3843 Y68.4357 I-0.9658 J-0.0445
G03 X20.2234 Y68.5896 I-0.2832 J-0.1350
G03 X19.8837 Y68.6676 I-0.3162 J-0.5987
G03 X18.6476 Y68.6572 I-0.3981 J-26.1121
G01 X17.2974 Y68.6290
G03 X17.0610 Y68.9314 I-1.9999 J-1.3198
G03 X16.3727 Y69.2399 I-0.7272 J-0.7004
G03 X15.9366 Y69.2120 I-0.1325 J-1.3509
G03 X15.2813 Y68.7264 I0.4148 J-1.2444
G02 X15.0951 Y68.6351 I-0.1927 J0.1576
G02 X14.2573 Y68.5938 I-0.8112 J7.9239
G02 X13.5811 Y68.5882 I-2.4404 J254.4718
G02 X13.5158 Y70.4092 I41.1865 J2.3872
G01 X13.5139 Y70.5073
G01 X13.4917 Y71.6727
G01 X14.4146 Y72.6845
G01 X15.3361 Y73.6948
G01 X19.8356
G02 X26.5706 Y74.8442 I1634.3473 J-9556.5948
G01 X26.8907 Y74.8987
G01 X30.7390 Y75.5543
G01 X36.7928 Y75.5838
G01 X42.8116 Y75.6132
G03 X42.9849 Y75.2830 I0.6573 J0.1345
G03 X43.8303 Y74.7203 I1.3840 J1.1627
G03 X44.3463 Y74.6945 I0.3547 J1.9241
G03 X45.3114 Y75.1500 I-0.0431 J1.3413
G03 X45.6804 Y76.0287 I-0.9506 J0.9162
G03 X45.6568 Y76.5318 I-2.0154 J0.1574
G03 X45.1993 Y77.2925 I-1.5966 J-0.4423
G03 X44.8068 Y77.5604 I-1.0287 J-1.0858
G02 X44.7164 Y77.6137 I0.5032 J0.9569
G02 X44.7032 Y77.7047 I0.3506 J0.0974
G02 X44.6765 Y78.5549 I16.8913 J0.9549
G03 X45.0633 Y78.8387 I-1.1628 J1.9899
G03 X45.3668 Y79.2353 I-0.9964 J1.0770
G01 X45.4353 Y79.3674
G02 X50.7628 Y79.3393 I-0.2553 J-552.8875
G01 X53.8807 Y79.3114
G03 X56.1369 Y77.2044 I121.9894 J128.3681
G03 X56.2688 Y77.0888 I1.6098 J1.7047
G03 X56.4312 Y77.0533 I0.1626 J0.3537
G03 X58.0278 Y77.0155 I1.4958 J29.4300
G03 X66.3041 Y76.9755 I12.6217 J1759.1927
G01 X69.3684 Y72.7826
G01 X72.4380 Y68.5823
G01 X72.5010 Y14.7820
G02 X67.6782 Y14.8371 I-0.0885 J203.3151
G01 Y16.5199
G03 X68.5593 Y17.5332 I-0.6144 J1.4240
G03 X68.5821 Y18.1020 I-2.5144 J0.3856
G03 X68.4461 Y18.5776 I-1.0681 J-0.0482
G03 X67.6004 Y19.3547 I-1.4202 J-0.6969
G03 X67.1647 Y19.4155 I-0.3856 J-1.1718
G03 X66.7419 Y19.3889 I-0.0999 J-1.7846
G03 X65.6381 Y18.2852 I0.4614 J-1.5653
G03 X65.6142 Y17.8284 I1.9649 J-0.3317
G03 X65.6994 Y17.3521 I1.2103 J-0.0293
G03 X66.3638 Y16.6270 I1.4622 J0.6727
G01 X66.5622 Y16.5150
G01 Y14.7819
G01 X53.4119
G02 X53.4289 Y16.1864 I24.3994 J0.4075
G02 X53.4713 Y16.4875 I1.0757 J0.0019
G02 X53.6017 Y16.5978 I0.2531 J-0.1670
G03 X54.3266 Y17.3754 I-0.7493 J1.4251
G03 X54.4036 Y17.9065 I-1.3593 J0.4683
G03 X54.3714 Y18.3120 I-1.4429 J0.0896
G03 X53.2745 Y19.3887 I-1.5602 J-0.4923
G03 X52.8102 Y19.4148 I-0.3468 J-2.0310
G03 X52.3346 Y19.3210 I-0.0415 J-1.0425
G03 X51.5464 Y18.5284 I0.6839 J-1.4682
G03 X51.4306 Y17.9921 I0.9874 J-0.4940
G03 X51.4572 Y17.5332 I2.0299 J-0.1123
G03 X52.1950 Y16.5930 I1.4889 J0.4088
G01 X52.3393 Y16.5194
G02 X52.2767 Y14.8335 I-48.1790 J0.9445
G01 X52.2430 Y14.8264
G02 X40.1746 Y14.6260 I-48.5427 J2559.9083
G03 X39.4260 Y14.6142 I12.7859 J-835.3484
G02 X39.4062 Y14.7450 I0.4227 J0.1307
G02 X39.4310 Y16.3044 I17.0837 J0.5077
G02 X39.4623 Y16.4963 I0.7856 J-0.0297
G02 X39.5694 Y16.5849 I0.1706 J-0.0972
G03 X40.1411 Y17.1186 I-0.7224 J1.3469
G03 X40.3408 Y17.6478 I-0.9688 J0.6679
G03 X40.3229 Y18.2810 I-2.5500 J0.2448
G03 X39.5048 Y19.2933 I-1.5742 J-0.4355
G03 X38.9700 Y19.4149 I-0.4945 J-0.9379
G03 X38.5330 Y19.3948 I-0.1175 J-2.2108
G03 X37.9740 Y19.1181 I0.3988 J-1.5088
G03 X37.4019 Y18.2852 I1.0065 J-1.3042
G03 X37.3780 Y17.8284 I1.9650 J-0.3317
G03 X37.4632 Y17.3521 I1.2103 J-0.0293
G03 X38.1337 Y16.6235 I1.4633 J0.6738
G01 X38.3367 Y16.5089
G03 X38.2836 Y14.6126 I26.8971 J-1.7026
G01 X24.2019
G02 X24.2208 Y16.1370 I26.4408 J0.4348
G02 X24.2536 Y16.5202 I6.2505 J-0.3419
G03 X24.6095 Y16.7361 I-1.0155 J2.0754
G03 X25.1413 Y17.4464 I-0.8765 J1.2106
G03 X25.1938 Y17.9523 I-1.6489 J0.4265
G03 X25.1535 Y18.3385 I-1.2059 J0.0694
G03 X24.0644 Y19.3886 I-1.5540 J-0.5218
G03 X23.6001 Y19.4146 I-0.3468 J-2.0310
G03 X23.1245 Y19.3209 I-0.0415 J-1.0424
G03 X22.3363 Y18.5282 I0.6839 J-1.4682
G03 X22.2205 Y17.9919 I0.9875 J-0.4940
G03 X22.2471 Y17.5331 I2.0316 J-0.1124
G03 X22.9902 Y16.5902 I1.4872 J0.4078
G01 X23.1392 Y16.5142
G03 X23.0859 Y14.6125 I27.0361 J-1.7103
G01 X18.6591 Y14.6129
G01 X14.1973 Y14.6133
G01 X12.7386 Y15.5669
G01 X11.2902 Y16.5138
G01 X11.2903 Y18.5621
G01 X11.2904 Y20.6057
G03 X15.7352 Y22.7081 I-192.2838 J412.2705
G03 X16.5933 Y23.1496 I-4.9367 J10.6508
G03 X16.7487 Y23.2766 I-0.1912 J0.3925
G03 X16.8269 Y23.5752 I-0.5068 J0.2923
G03 X16.8359 Y24.5433 I-15.1483 J0.6243
G03 X17.1281 Y24.8109 I-1.2556 J1.6642
G03 X17.3611 Y25.4340 I-0.7071 J0.6196
G03 X15.7822 Y26.4011 I-1.0502 J0.0579
G03 X15.5816 Y24.7202 I0.5426 J-0.9172
G01 X15.7456 Y24.5549
G01 X15.7293 Y24.2369
G01 X15.7133 Y23.9268
G03 X11.2792 Y21.8277 I190.9522 J-409.1067
G03 X10.4195 Y21.3854 I5.0266 J-10.8257
G03 X10.2625 Y21.2580 I0.1950 J-0.4008
G03 X10.1984 Y21.0071 I0.4563 J-0.2504
G03 X10.1755 Y19.7709 I21.4728 J-1.0156
G03 X10.1834 Y16.6266 I203.1634 J-1.0597
G03 X10.2223 Y16.0355 I4.1039 J-0.0267
G03 X10.2984 Y15.8310 I0.4316 J0.0442
G03 X10.3903 Y15.7585 I0.2347 J0.2031
G00 Z5.0000


(No. 2: Parte 2)
G00 X13.5087 Y16.8821 Z5.0000
G00 Z0.5000
G01 Z0.0000 F350
G01 Z-0.2000
G03 X15.4995 Y17.3500 I0.7425 J1.3097
G01 X15.6411 Y17.5633
G03 X16.7323 Y17.4796 I1.7575 J15.7711
G02 X17.1212 Y17.4342 I-0.0272 J-1.9195
G02 X17.2394 Y17.3272 I-0.0315 J-0.1535
G03 X17.8181 Y16.6501 I1.3092 J0.5332
G03 X18.3146 Y16.4498 I0.7086 J1.0411
G03 X18.9748 Y16.4774 I0.2459 J2.0251
G03 X20.0515 Y18.3840 I-0.3222 J1.4393
G03 X19.4606 Y19.1599 I-1.5274 J-0.5503
G01 X19.2469 Y19.3018
G01 X19.2581 Y19.7420
G01 X19.2689 Y20.1670
G03 X24.6108 Y20.8739 I-44.1145 J353.9046
G03 X30.3129 Y21.7486 I-26.2091 J189.8802
G03 X31.1991 Y21.9262 I-1.8153 J11.3624
G03 X31.3084 Y21.9883 I-0.0547 J0.2236
G03 X32.6330 Y23.2473 I-85.2234 J90.9925
G01 X33.8758 Y24.4408
G02 X34.9982 Y24.4901 I1.9897 J-32.4755
G02 X35.1607 Y24.4741 I0.0439 J-0.3862
G02 X35.2376 Y24.3760 I-0.2229 J-0.2541
G03 X36.2912 Y23.8813 I0.9662 J0.6885
G03 X37.2001 Y25.6274 I-0.1060 J1.1648
G03 X36.6768 Y26.0902 I-1.0177 J-0.6236
G03 X35.5261 Y25.9848 I-0.4921 J-0.9619
G03 X35.3373 Y25.8201 I0.9058 J-1.2287
G01 X35.1204 Y25.5979
G03 X33.6405 Y25.5645 I-0.0476 J-30.7335
G03 X33.4801 Y25.5447 I-0.0122 J-0.5608
G03 X33.1174 Y25.2553 I1.3210 J-2.0276
G03 X32.0133 Y24.2007 I59.5979 J-63.4981
G02 X30.6692 Y22.9170 I-304.6100 J317.5939
G02 X26.0832 Y22.2052 I-144.8047 J917.8003
G02 X20.5520 Y21.4562 I-51.4874 J359.4326
G03 X18.5438 Y21.1655 I6.9092 J-54.8143
G03 X18.2410 Y20.9012 I0.0566 J-0.3704
G03 X18.1622 Y20.3727 I2.0790 J-0.5803
G03 X18.1131 Y19.3625 I41.4634 J-2.5211
G03 X17.7027 Y19.1136 I0.8072 J-1.7937
G03 X17.3472 Y18.7018 I0.9639 J-1.1915
G01 X17.2550 Y18.5457
G03 X16.0425 Y18.6357 I-2.5011 J-25.4793
G02 X15.7386 Y18.6795 I0.0209 J1.2200
G02 X15.6470 Y18.7936 I0.0456 J0.1304
G03 X15.4075 Y19.1553 I-1.0029 J-0.4040
G03 X14.6333 Y19.6408 I-1.3018 J-1.2157
G03 X14.1173 Y19.6666 I-0.3548 J-1.9245
G03 X13.1523 Y19.2111 I0.0431 J-1.3413
G03 X12.7832 Y18.3324 I0.9506 J-0.9162
G03 X12.8758 Y17.6250 I1.6747 J-0.1406
G03 X13.5087 Y16.8821 I1.4662 J0.6082
G01 Z-0.2500
G03 X15.4995 Y17.3500 I0.7425 J1.3097
G01 X15.6411 Y17.5633
G03 X16.7323 Y17.4796 I1.7575 J15.7711
G02 X17.1212 Y17.4342 I-0.0272 J-1.9195
G02 X17.2394 Y17.3272 I-0.0315 J-0.1535
G03 X17.8181 Y16.6501 I1.3092 J0.5332
G03 X18.3146 Y16.4498 I0.7086 J1.0411
G03 X18.9748 Y16.4774 I0.2459 J2.0251
G03 X20.0515 Y18.3840 I-0.3222 J1.4393
G03 X19.4606 Y19.1599 I-1.5274 J-0.5503
G01 X19.2469 Y19.3018
G01 X19.2581 Y19.7420
G01 X19.2689 Y20.1670
G03 X24.6108 Y20.8739 I-44.1145 J353.9046
G03 X30.3129 Y21.7486 I-26.2091 J189.8802
G03 X31.1991 Y21.9262 I-1.8153 J11.3624
G03 X31.3084 Y21.9883 I-0.0547 J0.2236
G03 X32.6330 Y23.2473 I-85.2234 J90.9925
G01 X33.8758 Y24.4408
G02 X34.9982 Y24.4901 I1.9897 J-32.4755
G02 X35.1607 Y24.4741 I0.0439 J-0.3862
G02 X35.2376 Y24.3760 I-0.2229 J-0.2541
G03 X36.2912 Y23.8813 I0.9662 J0.6885
G03 X37.2001 Y25.6274 I-0.1060 J1.1648
G03 X36.6768 Y26.0902 I-1.0177 J-0.6236
G03 X35.5261 Y25.9848 I-0.4921 J-0.9619
G03 X35.3373 Y25.8201 I0.9058 J-1.2287
G01 X35.1204 Y25.5979
G03 X33.6405 Y25.5645 I-0.0476 J-30.7335
G03 X33.4801 Y25.5447 I-0.0122 J-0.5608
G03 X33.1174 Y25.2553 I1.3210 J-2.0276
G03 X32.0133 Y24.2007 I59.5979 J-63.4981
G02 X30.6692 Y22.9170 I-304.6100 J317.5939
G02 X26.0832 Y22.2052 I-144.8047 J917.8003
G02 X20.5520 Y21.4562 I-51.4874 J359.4326
G03 X18.5438 Y21.1655 I6.9092 J-54.8143
G03 X18.2410 Y20.9012 I0.0566 J-0.3704
G03 X18.1622 Y20.3727 I2.0790 J-0.5803
G03 X18.1131 Y19.3625 I41.4634 J-2.5211
G03 X17.7027 Y19.1136 I0.8072 J-1.7937
G03 X17.3472 Y18.7018 I0.9639 J-1.1915
G01 X17.2550 Y18.5457
G03 X16.0425 Y18.6357 I-2.5011 J-25.4793
G02 X15.7386 Y18.6795 I0.0209 J1.2200
G02 X15.6470 Y18.7936 I0.0456 J0.1304
G03 X15.4075 Y19.1553 I-1.0029 J-0.4040
G03 X14.6333 Y19.6408 I-1.3018 J-1.2157
G03 X14.1173 Y19.6666 I-0.3548 J-1.9245
G03 X13.1523 Y19.2111 I0.0431 J-1.3413
G03 X12.7832 Y18.3324 I0.9506 J-0.9162
G03 X12.8758 Y17.6250 I1.6747 J-0.1406
G03 X13.5087 Y16.8821 I1.4662 J0.6082
G00 Z5.0000


(No. 3: Parte 3)
G00 X27.0998 Y17.3365 Z5.0000
G00 Z0.5000
G01 Z0.0000 F350
G01 Z-0.2000
G03 X27.9646 Y16.7212 I1.3333 J0.9586
G03 X28.4214 Y16.6973 I0.3317 J1.9651
G03 X28.8977 Y16.7825 I0.0293 J1.2103
G03 X29.6455 Y17.4834 I-0.6757 J1.4702
G02 X29.7627 Y17.5482 I0.1210 J-0.0806
G02 X30.2357 Y17.5472 I0.2290 J-3.4944
G03 X32.3252 Y17.4311 I11.2997 J184.5895
G02 X32.3798 Y17.3778 I-0.0243 J-0.0797
G03 X32.6325 Y16.9606 I0.9819 J0.3095
G03 X33.4795 Y16.4564 I1.2742 J1.1770
G03 X34.7996 Y16.8035 I0.2947 J1.5634
G03 X35.2671 Y17.7785 I-0.8713 J1.0172
G03 X35.2479 Y18.2662 I-2.0938 J0.1620
G03 X34.9480 Y18.8542 I-1.6205 J-0.4560
G03 X34.5294 Y19.2488 I-1.2987 J-0.9583
G03 X34.3992 Y19.3009 I-0.2435 J-0.4200
G01 X34.3873 Y19.3058
G02 X34.3684 Y19.3875 I0.1411 J0.0757
G02 X34.3822 Y20.2934 I15.7436 J0.2128
G03 X38.2932 Y21.8992 I-131.4784 J325.7920
G03 X39.0152 Y22.2331 I-2.5071 J6.3675
G03 X39.2080 Y22.5326 I-0.1742 J0.3240
G03 X39.2299 Y23.2223 I-5.6546 J0.5251
G02 X39.2451 Y23.8364 I5.8854 J0.1621
G02 X39.3956 Y24.0889 I0.3109 J-0.0142
G03 X39.8589 Y24.7747 I-0.6279 J0.9235
G03 X39.6747 Y25.7260 I-1.0413 J0.2918
G03 X37.7314 Y25.6275 I-0.9392 J-0.6897
G03 X37.7828 Y24.3898 I0.9658 J-0.5798
G03 X37.9845 Y24.1574 I1.1547 J0.7987
G01 X38.1506 Y24.0035
G01 X38.0949 Y23.0130
G02 X33.7126 Y21.2225 I-499.9903 J1217.4482
G03 X33.4067 Y21.0464 I0.3222 J-0.9136
G03 X33.2717 Y20.7786 I0.3303 J-0.3343
G03 X33.2461 Y20.3261 I2.9317 J-0.3930
G01 X33.2460 Y20.2017
G01 Y20.0632
G01 X33.2459 Y19.3470
G03 X32.8123 Y19.0543 I1.5540 J-2.7696
G03 X32.4852 Y18.6573 I0.9205 J-1.0917
G02 X32.3558 Y18.5676 I-0.1521 J0.0813
G02 X32.0114 Y18.5583 I-0.2211 J1.8108
G02 X30.5343 Y18.6417 I58.9587 J1056.7893
G02 X29.7894 Y18.6814 I3.3041 J69.1286
G02 X29.7219 Y18.7566 I0.0600 J0.1218
G03 X29.1910 Y19.4191 I-1.3512 J-0.5386
G03 X28.6327 Y19.6567 I-0.7527 J-0.9942
G03 X27.9963 Y19.6478 I-0.2794 J-2.7940
G03 X27.3099 Y19.2811 I0.3683 J-1.5150
G03 X26.8575 Y18.5505 I0.9114 J-1.0698
G03 X26.8395 Y17.9705 I2.8758 J-0.3793
G03 X26.9612 Y17.5695 I0.9814 J0.0788
G03 X27.0998 Y17.3365 I1.4975 J0.7335
G01 Z-0.2500
G03 X27.9646 Y16.7212 I1.3333 J0.9586
G03 X28.4214 Y16.6973 I0.3317 J1.9651
G03 X28.8977 Y16.7825 I0.0293 J1.2103
G03 X29.6455 Y17.4834 I-0.6757 J1.4702
G02 X29.7627 Y17.5482 I0.1210 J-0.0806
G02 X30.2357 Y17.5472 I0.2290 J-3.4944
G03 X32.3252 Y17.4311 I11.2997 J184.5895
G02 X32.3798 Y17.3778 I-0.0243 J-0.0797
G03 X32.6325 Y16.9606 I0.9819 J0.3095
G03 X33.4795 Y16.4564 I1.2742 J1.1770
G03 X34.7996 Y16.8035 I0.2947 J1.5634
G03 X35.2671 Y17.7785 I-0.8713 J1.0172
G03 X35.2479 Y18.2662 I-2.0938 J0.1620
G03 X34.9480 Y18.8542 I-1.6205 J-0.4560
G03 X34.5294 Y19.2488 I-1.2987 J-0.9583
G03 X34.3992 Y19.3009 I-0.2435 J-0.4200
G01 X34.3873 Y19.3058
G02 X34.3684 Y19.3875 I0.1411 J0.0757
G02 X34.3822 Y20.2934 I15.7436 J0.2128
G03 X38.2932 Y21.8992 I-131.4784 J325.7920
G03 X39.0152 Y22.2331 I-2.5071 J6.3675
G03 X39.2080 Y22.5326 I-0.1742 J0.3240
G03 X39.2299 Y23.2223 I-5.6546 J0.5251
G02 X39.2451 Y23.8364 I5.8854 J0.1621
G02 X39.3956 Y24.0889 I0.3109 J-0.0142
G03 X39.8589 Y24.7747 I-0.6279 J0.9235
G03 X39.6747 Y25.7260 I-1.0413 J0.2918
G03 X37.7314 Y25.6275 I-0.9392 J-0.6897
G03 X37.7828 Y24.3898 I0.9658 J-0.5798
G03 X37.9845 Y24.1574 I1.1547 J0.7987
G01 X38.1506 Y24.0035
G01 X38.0949 Y23.0130
G02 X33.7126 Y21.2225 I-499.9903 J1217.4482
G03 X33.4067 Y21.0464 I0.3222 J-0.9136
G03 X33.2717 Y20.7786 I0.3303 J-0.3343
G03 X33.2461 Y20.3261 I2.9317 J-0.3930
G01 X33.2460 Y20.2017
G01 Y20.0632
G01 X33.2459 Y19.3470
G03 X32.8123 Y19.0543 I1.5540 J-2.7696
G03 X32.4852 Y18.6573 I0.9205 J-1.0917
G02 X32.3558 Y18.5676 I-0.1521 J0.0813
G02 X32.0114 Y18.5583 I-0.2211 J1.8108
G02 X30.5343 Y18.6417 I58.9587 J1056.7893
G02 X29.7894 Y18.6814 I3.3041 J69.1286
G02 X29.7219 Y18.7566 I0.0600 J0.1218
G03 X29.1910 Y19.4191 I-1.3512 J-0.5386
G03 X28.6327 Y19.6567 I-0.7527 J-0.9942
G03 X27.9963 Y19.6478 I-0.2794 J-2.7940
G03 X27.3099 Y19.2811 I0.3683 J-1.5150
G03 X26.8575 Y18.5505 I0.9114 J-1.0698
G03 X26.8395 Y17.9705 I2.8758 J-0.3793
G03 X26.9612 Y17.5695 I0.9814 J0.0788
G03 X27.0998 Y17.3365 I1.4975 J0.7335
G00 Z5.0000


(No. 4: Parte 4)
G00 X41.7766 Y17.6621 Z5.0000
G00 Z0.5000
G01 Z0.0000 F350
G01 Z-0.2000
G03 X42.8236 Y16.7212 I1.5115 J0.6289
G03 X43.2804 Y16.6973 I0.3317 J1.9651
G03 X43.7567 Y16.7825 I0.0293 J1.2104
G03 X44.5013 Y17.4697 I-0.6987 J1.5041
G02 X44.5751 Y17.5568 I0.4195 J-0.2806
G02 X45.0355 Y17.5315 I-0.3221 J-10.0765
G02 X46.4049 Y17.4272 I-4.3412 J-66.0462
G03 X46.5345 Y17.1491 I4.7146 J2.0282
G03 X47.4966 Y16.4530 I1.3200 J0.8115
G03 X48.4501 Y16.5645 I0.2712 J1.8140
G03 X48.7706 Y19.0831 I-0.5918 J1.3550
G01 X48.6271 Y19.1857
G01 X48.3742 Y19.3469
G03 X48.3686 Y20.2727 I-17.9570 J0.3541
G03 X48.3011 Y20.6890 I-1.2091 J0.0175
G03 X48.0385 Y20.9109 I-0.3761 J-0.1788
G03 X44.9257 Y21.9789 I-86.4441 J-246.8769
G01 X41.8994 Y23.0027
G02 X41.8579 Y23.5307 I3.0479 J0.5054
G02 Y24.0402 I22.3765 J0.2532
G03 X42.1419 Y24.2671 I-0.5862 J1.0246
G03 X42.4221 Y25.2606 I-0.9688 J0.8096
G03 X40.5499 Y25.9461 I-1.1460 J-0.2303
G03 X40.5729 Y24.1160 I0.7280 J-0.9061
G01 X40.7303 Y23.9983
G03 X40.7820 Y22.8024 I35.5016 J0.9352
G03 X40.8486 Y22.3555 I1.7674 J0.0350
G03 X41.1010 Y22.1063 I0.3676 J0.1198
G03 X44.2544 Y21.0255 I90.2366 J258.1467
G01 X47.2576 Y20.0089
G02 X47.2531 Y19.3872 I-8.9702 J-0.2458
G02 X47.2374 Y19.3118 I-0.1761 J-0.0028
G02 X47.1685 Y19.2853 I-0.1105 J0.1849
G03 X46.8660 Y19.0694 I0.5197 J-1.0480
G03 X46.5178 Y18.6422 I1.1654 J-1.3056
G02 X46.4430 Y18.5535 I-0.4321 J0.2885
G02 X46.0967 Y18.5709 I0.0952 J5.3417
G02 X44.6132 Y18.6830 I4.3971 J68.1014
G03 X44.4975 Y18.9349 I-5.7379 J-2.4810
G03 X43.5764 Y19.6422 I-1.3267 J-0.7744
G03 X43.0068 Y19.6652 I-0.3864 J-2.5039
G03 X42.5312 Y19.5292 I0.0482 J-1.0681
G03 X41.7541 Y18.6835 I0.6968 J-1.4202
G03 X41.6933 Y18.2478 I1.1718 J-0.3856
G03 X41.7199 Y17.8250 I1.7845 J-0.0999
G03 X41.7766 Y17.6621 I0.9378 J0.2351
G01 Z-0.2500
G03 X42.8236 Y16.7212 I1.5115 J0.6289
G03 X43.2804 Y16.6973 I0.3317 J1.9651
G03 X43.7567 Y16.7825 I0.0293 J1.2104
G03 X44.5013 Y17.4697 I-0.6987 J1.5041
G02 X44.5751 Y17.5568 I0.4195 J-0.2806
G02 X45.0355 Y17.5315 I-0.3221 J-10.0765
G02 X46.4049 Y17.4272 I-4.3412 J-66.0462
G03 X46.5345 Y17.1491 I4.7146 J2.0282
G03 X47.4966 Y16.4530 I1.3200 J0.8115
G03 X48.4501 Y16.5645 I0.2712 J1.8140
G03 X48.7706 Y19.0831 I-0.5918 J1.3550
G01 X48.6271 Y19.1857
G01 X48.3742 Y19.3469
G03 X48.3686 Y20.2727 I-17.9570 J0.3541
G03 X48.3011 Y20.6890 I-1.2091 J0.0175
G03 X48.0385 Y20.9109 I-0.3761 J-0.1788
G03 X44.9257 Y21.9789 I-86.4441 J-246.8769
G01 X41.8994 Y23.0027
G02 X41.8579 Y23.5307 I3.0479 J0.5054
G02 Y24.0402 I22.3765 J0.2532
G03 X42.1419 Y24.2671 I-0.5862 J1.0246
G03 X42.4221 Y25.2606 I-0.9688 J0.8096
G03 X40.5499 Y25.9461 I-1.1460 J-0.2303
G03 X40.5729 Y24.1160 I0.7280 J-0.9061
G01 X40.7303 Y23.9983
G03 X40.7820 Y22.8024 I35.5016 J0.9352
G03 X40.8486 Y22.3555 I1.7674 J0.0350
G03 X41.1010 Y22.1063 I0.3676 J0.1198
G03 X44.2544 Y21.0255 I90.2366 J258.1467
G01 X47.2576 Y20.0089
G02 X47.2531 Y19.3872 I-8.9702 J-0.2458
G02 X47.2374 Y19.3118 I-0.1761 J-0.0028
G02 X47.1685 Y19.2853 I-0.1105 J0.1849
G03 X46.8660 Y19.0694 I0.5197 J-1.0480
G03 X46.5178 Y18.6422 I1.1654 J-1.3056
G02 X46.4430 Y18.5535 I-0.4321 J0.2885
G02 X46.0967 Y18.5709 I0.0952 J5.3417
G02 X44.6132 Y18.6830 I4.3971 J68.1014
G03 X44.4975 Y18.9349 I-5.7379 J-2.4810
G03 X43.5764 Y19.6422 I-1.3267 J-0.7744
G03 X43.0068 Y19.6652 I-0.3864 J-2.5039
G03 X42.5312 Y19.5292 I0.0482 J-1.0681
G03 X41.7541 Y18.6835 I0.6968 J-1.4202
G03 X41.6933 Y18.2478 I1.1718 J-0.3856
G03 X41.7199 Y17.8250 I1.7845 J-0.0999
G03 X41.7766 Y17.6621 I0.9378 J0.2351
G00 Z5.0000


(No. 5: Parte 5)
G00 X42.8801 Y24.3533 Z5.0000
G00 Z0.5000
G01 Z0.0000 F350
G01 Z-0.2000
G03 X43.6654 Y23.8837 I0.9339 J0.6703
G03 X44.5907 Y24.1775 I0.1131 J1.2479
G03 X44.8156 Y24.4669 I-0.8008 J0.8545
G01 X47.0254 Y24.4216
G01 X53.1364 Y22.6674
G01 X54.3323 Y22.3241
G01 X55.4074 Y22.0155
G01 X56.3682 Y21.7396
G01 X57.2211 Y21.4947
G02 X61.3846 Y20.2930 I-131.5538 J-463.5794
G01 X61.4200 Y20.2815
G02 X61.4453 Y19.8019 I-5.7057 J-0.5426
G01 X61.4581 Y19.3345
G03 X61.0433 Y19.0495 I1.4325 J-2.5295
G03 X60.7857 Y18.7590 I0.9013 J-1.0584
G01 X60.6437 Y18.5450
G03 X59.2133 Y18.6453 I-4.3364 J-51.6083
G02 X58.9238 Y18.6856 I0.0334 J1.3006
G02 X58.8345 Y18.7713 I0.0179 J0.1079
G03 X58.5873 Y19.1554 I-0.9927 J-0.3673
G03 X57.8133 Y19.6408 I-1.3018 J-1.2161
G03 X57.2973 Y19.6665 I-0.3548 J-1.9245
G03 X56.3323 Y19.2110 I0.0431 J-1.3413
G03 X55.9632 Y18.3323 I0.9506 J-0.9162
G03 X56.0558 Y17.6249 I1.6747 J-0.1406
G03 X56.6888 Y16.8820 I1.4664 J0.6083
G03 X58.6798 Y17.3505 I0.7424 J1.3098
G01 X58.8224 Y17.5652
G03 X60.2519 Y17.4650 I4.3600 J51.9370
G02 X60.5417 Y17.4249 I-0.0350 J-1.3201
G02 X60.6386 Y17.3182 I-0.0245 J-0.1197
G03 X60.9179 Y16.9101 I1.0163 J0.3960
G03 X61.7157 Y16.4563 I1.2273 J1.2294
G03 X63.0358 Y16.8033 I0.2947 J1.5634
G03 X63.5026 Y17.7778 I-0.8675 J1.0146
G03 X63.4790 Y18.2809 I-2.0157 J0.1574
G03 X63.0214 Y19.0417 I-1.5964 J-0.4422
G03 X62.5557 Y19.3427 I-0.9586 J-0.9723
G03 X62.5501 Y20.5123 I-28.2363 J0.4508
G03 X62.5064 Y20.9151 I-1.7389 J0.0150
G03 X62.2422 Y21.2039 I-0.3716 J-0.0748
G03 X54.7091 Y23.3794 I-374.7852 J-1283.6036
G01 X47.2951 Y25.5084
G03 X44.8572 Y25.5800 I-2.6602 J-49.0682
G01 X44.7400 Y25.7394
G03 X42.8368 Y25.6653 I-0.9257 J-0.7006
G03 X42.8801 Y24.3533 I0.9801 J-0.6244
G01 Z-0.2500
G03 X43.6654 Y23.8837 I0.9339 J0.6703
G03 X44.5907 Y24.1775 I0.1131 J1.2479
G03 X44.8156 Y24.4669 I-0.8008 J0.8545
G01 X47.0254 Y24.4216
G01 X53.1364 Y22.6674
G01 X54.3323 Y22.3241
G01 X55.4074 Y22.0155
G01 X56.3682 Y21.7396
G01 X57.2211 Y21.4947
G02 X61.3846 Y20.2930 I-131.5538 J-463.5794
G01 X61.4200 Y20.2815
G02 X61.4453 Y19.8019 I-5.7057 J-0.5426
G01 X61.4581 Y19.3345
G03 X61.0433 Y19.0495 I1.4325 J-2.5295
G03 X60.7857 Y18.7590 I0.9013 J-1.0584
G01 X60.6437 Y18.5450
G03 X59.2133 Y18.6453 I-4.3364 J-51.6083
G02 X58.9238 Y18.6856 I0.0334 J1.3006
G02 X58.8345 Y18.7713 I0.0179 J0.1079
G03 X58.5873 Y19.1554 I-0.9927 J-0.3673
G03 X57.8133 Y19.6408 I-1.3018 J-1.2161
G03 X57.2973 Y19.6665 I-0.3548 J-1.9245
G03 X56.3323 Y19.2110 I0.0431 J-1.3413
G03 X55.9632 Y18.3323 I0.9506 J-0.9162
G03 X56.0558 Y17.6249 I1.6747 J-0.1406
G03 X56.6888 Y16.8820 I1.4664 J0.6083
G03 X58.6798 Y17.3505 I0.7424 J1.3098
G01 X58.8224 Y17.5652
G03 X60.2519 Y17.4650 I4.3600 J51.9370
G02 X60.5417 Y17.4249 I-0.0350 J-1.3201
G02 X60.6386 Y17.3182 I-0.0245 J-0.1197
G03 X60.9179 Y16.9101 I1.0163 J0.3960
G03 X61.7157 Y16.4563 I1.2273 J1.2294
G03 X63.0358 Y16.8033 I0.2947 J1.5634
G03 X63.5026 Y17.7778 I-0.8675 J1.0146
G03 X63.4790 Y18.2809 I-2.0157 J0.1574
G03 X63.0214 Y19.0417 I-1.5964 J-0.4422
G03 X62.5557 Y19.3427 I-0.9586 J-0.9723
G03 X62.5501 Y20.5123 I-28.2363 J0.4508
G03 X62.5064 Y20.9151 I-1.7389 J0.0150
G03 X62.2422 Y21.2039 I-0.3716 J-0.0748
G03 X54.7091 Y23.3794 I-374.7852 J-1283.6036
G01 X47.2951 Y25.5084
G03 X44.8572 Y25.5800 I-2.6602 J-49.0682
G01 X44.7400 Y25.7394
G03 X42.8368 Y25.6653 I-0.9257 J-0.7006
G03 X42.8801 Y24.3533 I0.9801 J-0.6244
G00 Z5.0000


(No. 6: Parte 6)
G00 X19.1352 Y24.5707 Z5.0000
G00 Z0.5000
G01 Z0.0000 F350
G01 Z-0.2000
G03 X20.3840 Y24.5724 I0.6231 J0.9213
G03 X20.9061 Y25.8137 I-0.6206 J0.9915
G03 X20.4259 Y26.5048 I-1.1327 J-0.2747
G01 X20.2649 Y26.6156
G03 X20.2584 Y27.6295 I-21.5362 J0.3699
G03 X20.2190 Y27.9012 I-0.9055 J0.0073
G03 X20.1297 Y28.0350 I-0.3059 J-0.1073
G03 X18.9737 Y29.0208 I-9.6757 J-10.1762
G03 X18.7370 Y29.1068 I-0.2848 J-0.4149
G03 X18.0234 Y29.1673 I-1.0032 J-7.6036
G01 X17.2685 Y29.2095
G03 X17.0006 Y29.4996 I-1.4764 J-1.0942
G03 X15.3375 Y28.3024 I-0.6901 J-0.7951
G03 X17.0314 Y27.9248 I0.9777 J0.3980
G01 X17.0952 Y27.9869
G01 X17.2055 Y28.1030
G02 X18.1714 Y28.0423 I-0.8504 J-21.2656
G02 X18.5220 Y27.9385 I-0.0278 J-0.7377
G02 X18.7896 Y27.7293 I-2.0891 J-2.9491
G01 X19.1289 Y27.4486
G01 X19.1515 Y27.0169
G01 X19.1740 Y26.5859
G03 X18.8288 Y26.2311 I1.9570 J-2.2500
G03 X18.6129 Y25.4770 I0.8340 J-0.6467
G03 X19.1352 Y24.5707 I1.2241 J0.1018
G01 Z-0.2500
G03 X20.3840 Y24.5724 I0.6231 J0.9213
G03 X20.9061 Y25.8137 I-0.6206 J0.9915
G03 X20.4259 Y26.5048 I-1.1327 J-0.2747
G01 X20.2649 Y26.6156
G03 X20.2584 Y27.6295 I-21.5362 J0.3699
G03 X20.2190 Y27.9012 I-0.9055 J0.0073
G03 X20.1297 Y28.0350 I-0.3059 J-0.1073
G03 X18.9737 Y29.0208 I-9.6757 J-10.1762
G03 X18.7370 Y29.1068 I-0.2848 J-0.4149
G03 X18.0234 Y29.1673 I-1.0032 J-7.6036
G01 X17.2685 Y29.2095
G03 X17.0006 Y29.4996 I-1.4764 J-1.0942
G03 X15.3375 Y28.3024 I-0.6901 J-0.7951
G03 X17.0314 Y27.9248 I0.9777 J0.3980
G01 X17.0952 Y27.9869
G01 X17.2055 Y28.1030
G02 X18.1714 Y28.0423 I-0.8504 J-21.2656
G02 X18.5220 Y27.9385 I-0.0278 J-0.7377
G02 X18.7896 Y27.7293 I-2.0891 J-2.9491
G01 X19.1289 Y27.4486
G01 X19.1515 Y27.0169
G01 X19.1740 Y26.5859
G03 X18.8288 Y26.2311 I1.9570 J-2.2500
G03 X18.6129 Y25.4770 I0.8340 J-0.6467
G03 X19.1352 Y24.5707 I1.2241 J0.1018
G00 Z5.0000


(No. 7: Parte 7)
G00 X15.7626 Y34.9234 Z5.0000
G00 Z0.5000
G01 Z0.0000 F350
G01 Z-0.2000
G03 X16.8962 Y35.1001 I0.4244 J1.0017
G03 X17.2199 Y35.4185 I-2.6870 J3.0551
G01 X18.4757 Y35.3702
G01 X22.9247 Y31.9049
G03 X27.5067 Y28.3532 I397.2106 J507.7103
G03 X27.7001 Y28.3125 I0.1893 J0.4193
G03 X29.2213 Y28.2749 I1.5128 J30.3972
G03 X42.2625 Y28.2092 I31.9030 J5040.1304
G01 X42.8195 Y28.2069
G01 X43.3495 Y28.2047
G03 X48.6057 Y28.1874 I9.9511 J2225.3924
G03 X50.7745 Y29.4883 I-47.9687 J82.4309
G03 X51.2821 Y29.8349 I-2.3323 J3.9608
G03 X51.3733 Y29.9560 I-0.1263 J0.1900
G03 X51.4037 Y30.3979 I-3.0070 J0.4294
G03 X51.4117 Y34.3764 I-224.9665 J2.4374
G03 X51.3990 Y37.8125 I-3608.7588 J-11.6027
G01 X51.3676 Y45.5567
G01 X51.3662 Y45.5683
G03 X50.9972 Y46.0226 I-2.7224 J-1.8342
G03 X49.9476 Y47.1011 I-15.9965 J-14.5179
G03 X49.7580 Y47.1862 I-0.2007 J-0.1933
G03 X48.9294 Y47.2055 I-0.6290 J-9.2358
G03 X45.0052 Y47.1591 I2.5561 J-382.3144
G03 X44.6722 Y47.4872 I-2.3141 J-2.0153
G03 X43.7574 Y47.7359 I-0.7127 J-0.8148
G03 X42.8811 Y47.0757 I0.2262 J-1.2119
G03 X43.0013 Y45.9187 I1.0570 J-0.4749
G03 X44.5958 Y45.6233 I0.9497 J0.6748
G03 X44.8449 Y45.8646 I-0.6119 J0.8809
G01 X44.9743 Y46.0385
G02 X49.3945 Y46.0934 I3.7693 J-125.5688
G01 X49.8243 Y45.6325
G01 X50.2556 Y45.1701
G01 X50.3126 Y30.4874
G01 X49.3075 Y29.8954
G01 X48.2895 Y29.2958
G01 X27.9799 Y29.3884
G01 X23.5236 Y32.8591
G03 X18.9378 Y36.4162 I-474.2424 J-606.6583
G03 X18.6874 Y36.4854 I-0.2641 J-0.4681
G03 X17.7096 Y36.5064 I-0.9714 J-22.4222
G02 X17.2624 Y36.5317 I-0.0265 J3.5084
G02 X17.0322 Y36.7820 I0.8516 J1.0139
G03 X15.8974 Y37.1360 I-0.8620 J-0.7673
G03 X15.1902 Y35.3829 I0.2878 J-1.1353
G03 X15.7626 Y34.9234 I1.0255 J0.6912
G01 Z-0.2500
G03 X16.8962 Y35.1001 I0.4244 J1.0017
G03 X17.2199 Y35.4185 I-2.6870 J3.0551
G01 X18.4757 Y35.3702
G01 X22.9247 Y31.9049
G03 X27.5067 Y28.3532 I397.2106 J507.7103
G03 X27.7001 Y28.3125 I0.1893 J0.4193
G03 X29.2213 Y28.2749 I1.5128 J30.3972
G03 X42.2625 Y28.2092 I31.9030 J5040.1304
G01 X42.8195 Y28.2069
G01 X43.3495 Y28.2047
G03 X48.6057 Y28.1874 I9.9511 J2225.3924
G03 X50.7745 Y29.4883 I-47.9687 J82.4309
G03 X51.2821 Y29.8349 I-2.3323 J3.9608
G03 X51.3733 Y29.9560 I-0.1263 J0.1900
G03 X51.4037 Y30.3979 I-3.0070 J0.4294
G03 X51.4117 Y34.3764 I-224.9665 J2.4374
G03 X51.3990 Y37.8125 I-3608.7588 J-11.6027
G01 X51.3676 Y45.5567
G01 X51.3662 Y45.5683
G03 X50.9972 Y46.0226 I-2.7224 J-1.8342
G03 X49.9476 Y47.1011 I-15.9965 J-14.5179
G03 X49.7580 Y47.1862 I-0.2007 J-0.1933
G03 X48.9294 Y47.2055 I-0.6290 J-9.2358
G03 X45.0052 Y47.1591 I2.5561 J-382.3144
G03 X44.6722 Y47.4872 I-2.3141 J-2.0153
G03 X43.7574 Y47.7359 I-0.7127 J-0.8148
G03 X42.8811 Y47.0757 I0.2262 J-1.2119
G03 X43.0013 Y45.9187 I1.0570 J-0.4749
G03 X44.5958 Y45.6233 I0.9497 J0.6748
G03 X44.8449 Y45.8646 I-0.6119 J0.8809
G01 X44.9743 Y46.0385
G02 X49.3945 Y46.0934 I3.7693 J-125.5688
G01 X49.8243 Y45.6325
G01 X50.2556 Y45.1701
G01 X50.3126 Y30.4874
G01 X49.3075 Y29.8954
G01 X48.2895 Y29.2958
G01 X27.9799 Y29.3884
G01 X23.5236 Y32.8591
G03 X18.9378 Y36.4162 I-474.2424 J-606.6583
G03 X18.6874 Y36.4854 I-0.2641 J-0.4681
G03 X17.7096 Y36.5064 I-0.9714 J-22.4222
G02 X17.2624 Y36.5317 I-0.0265 J3.5084
G02 X17.0322 Y36.7820 I0.8516 J1.0139
G03 X15.8974 Y37.1360 I-0.8620 J-0.7673
G03 X15.1902 Y35.3829 I0.2878 J-1.1353
G03 X15.7626 Y34.9234 I1.0255 J0.6912
G00 Z5.0000


(No. 8: Parte 8)
G00 X15.8372 Y37.4360 Z5.0000
G00 Z0.5000
G01 Z0.0000 F350
G01 Z-0.2000
G03 X16.8984 Y37.6422 I0.3512 J1.0265
G03 X17.2266 Y37.9653 I-2.7639 J3.1355
G01 X19.0610
G01 X23.7038 Y34.5144
G03 X28.4799 Y30.9779 I507.1637 J679.9367
G03 X28.6622 Y30.9373 I0.1832 J0.3936
G03 X30.0396 Y30.8997 I1.3771 J25.1563
G03 X42.2620 Y30.8313 I28.8120 J4056.4220
G03 X47.4759 Y30.8120 I9.5266 J1874.0738
G03 X48.7427 Y31.7036 I-16.1992 J24.3623
G03 X48.9353 Y31.8901 I-0.4349 J0.6416
G03 X48.9689 Y32.0229 I-0.1726 J0.1144
G03 X49.0194 Y34.4063 I-72.6477 J2.7300
G03 X49.0804 Y42.6546 I-982.3127 J11.3940
G03 X49.0631 Y43.3734 I-10.3881 J0.1089
G03 X49.0276 Y43.5617 I-0.5550 J-0.0072
G03 X48.6594 Y44.0371 I-3.6475 J-2.4436
G03 X48.1291 Y44.5995 I-4.0800 J-3.3169
G03 X47.9300 Y44.6552 I-0.2019 J-0.3375
G03 X46.9682 Y44.6613 I-0.5578 J-12.2452
G03 X45.0011 Y44.6228 I7.4361 J-430.9704
G03 X44.6708 Y44.9482 I-2.2782 J-1.9824
G03 X43.4599 Y45.0966 I-0.7155 J-0.8244
G03 X42.7987 Y44.2849 I0.4597 J-1.0497
G03 X43.4327 Y43.0095 I1.1752 J-0.2111
G03 X44.7676 Y43.2302 I0.5172 J1.0189
G01 X44.8439 Y43.3200
G01 X44.9742 Y43.4912
G02 X46.6204 Y43.5475 I1.6615 J-24.4572
G01 X46.6981 Y43.5481
G01 X47.6089 Y43.5529
G01 X47.7941 Y43.3279
G01 X47.9829 Y43.0985
G02 X47.8834 Y32.4504 I-2255.7486 J15.7679
G01 X47.5067 Y32.1878
G01 X47.1220 Y31.9196
G01 X28.9496 Y32.0128
G01 X24.3052 Y35.4631
G03 X19.5123 Y39.0099 I-393.5982 J-526.8674
G03 X19.2269 Y39.0681 I-0.2762 J-0.6246
G03 X18.2887 Y39.0809 I-0.7551 J-21.0673
G01 X17.2130 Y39.0813
G03 X16.9456 Y39.4088 I-1.4980 J-0.9500
G03 X15.3849 Y39.3955 I-0.7733 J-0.8392
G03 X15.3707 Y37.7076 I0.7832 J-0.8506
G03 X15.8372 Y37.4360 I0.8829 J0.9798
G01 Z-0.2500
G03 X16.8984 Y37.6422 I0.3512 J1.0265
G03 X17.2266 Y37.9653 I-2.7639 J3.1355
G01 X19.0610
G01 X23.7038 Y34.5144
G03 X28.4799 Y30.9779 I507.1637 J679.9367
G03 X28.6622 Y30.9373 I0.1832 J0.3936
G03 X30.0396 Y30.8997 I1.3771 J25.1563
G03 X42.2620 Y30.8313 I28.8120 J4056.4220
G03 X47.4759 Y30.8120 I9.5266 J1874.0738
G03 X48.7427 Y31.7036 I-16.1992 J24.3623
G03 X48.9353 Y31.8901 I-0.4349 J0.6416
G03 X48.9689 Y32.0229 I-0.1726 J0.1144
G03 X49.0194 Y34.4063 I-72.6477 J2.7300
G03 X49.0804 Y42.6546 I-982.3127 J11.3940
G03 X49.0631 Y43.3734 I-10.3881 J0.1089
G03 X49.0276 Y43.5617 I-0.5550 J-0.0072
G03 X48.6594 Y44.0371 I-3.6475 J-2.4436
G03 X48.1291 Y44.5995 I-4.0800 J-3.3169
G03 X47.9300 Y44.6552 I-0.2019 J-0.3375
G03 X46.9682 Y44.6613 I-0.5578 J-12.2452
G03 X45.0011 Y44.6228 I7.4361 J-430.9704
G03 X44.6708 Y44.9482 I-2.2782 J-1.9824
G03 X43.4599 Y45.0966 I-0.7155 J-0.8244
G03 X42.7987 Y44.2849 I0.4597 J-1.0497
G03 X43.4327 Y43.0095 I1.1752 J-0.2111
G03 X44.7676 Y43.2302 I0.5172 J1.0189
G01 X44.8439 Y43.3200
G01 X44.9742 Y43.4912
G02 X46.6204 Y43.5475 I1.6615 J-24.4572
G01 X46.6981 Y43.5481
G01 X47.6089 Y43.5529
G01 X47.7941 Y43.3279
G01 X47.9829 Y43.0985
G02 X47.8834 Y32.4504 I-2255.7486 J15.7679
G01 X47.5067 Y32.1878
G01 X47.1220 Y31.9196
G01 X28.9496 Y32.0128
G01 X24.3052 Y35.4631
G03 X19.5123 Y39.0099 I-393.5982 J-526.8674
G03 X19.2269 Y39.0681 I-0.2762 J-0.6246
G03 X18.2887 Y39.0809 I-0.7551 J-21.0673
G01 X17.2130 Y39.0813
G03 X16.9456 Y39.4088 I-1.4980 J-0.9500
G03 X15.3849 Y39.3955 I-0.7733 J-0.8392
G03 X15.3707 Y37.7076 I0.7832 J-0.8506
G03 X15.8372 Y37.4360 I0.8829 J0.9798
G00 Z5.0000


(No. 9: Parte 9)
G00 X15.8380 Y39.9754 Z5.0000
G00 Z0.5000
G01 Z0.0000 F350
G01 Z-0.2000
G03 X16.9023 Y40.1860 I0.3501 J1.0255
G03 X17.2374 Y40.5163 I-2.8921 J3.2690
G01 X19.6277 Y40.5519
G01 X24.5039 Y37.0852
G03 X29.5230 Y33.5255 I776.0626 J1088.9205
G03 X29.7648 Y33.4716 I0.2293 J0.4590
G03 X31.4706 Y33.4441 I1.4476 J36.8623
G03 X45.7914 Y33.4588 I2.2681 J4753.5359
G01 X45.8031 Y33.4635
G03 X46.0279 Y33.6961 I-0.6563 J0.8592
G03 X46.1214 Y33.9386 I-0.4856 J0.3264
G02 X46.3920 Y34.4146 I1.6567 J-0.6270
G03 X46.6282 Y34.7687 I-3.2902 J2.4509
G01 X46.6396 Y34.8427
G03 X46.6892 Y36.3053 I-40.6931 J2.1137
G03 X46.7418 Y41.2472 I-204.6678 J4.6482
G01 X46.7382 Y41.4799
G01 X46.7324 Y41.6355
G03 X46.6849 Y41.7771 I-0.1986 J0.0121
G03 X46.4117 Y41.9336 I-0.2986 J-0.2044
G03 X45.7210 Y41.9603 I-0.5481 J-5.2308
G01 X45.0291
G03 X44.8082 Y42.2974 I-1.1166 J-0.4909
G03 X43.4002 Y42.5309 I-0.8550 J-0.7939
G03 X42.8001 Y41.3060 I0.5157 J-1.0121
G03 X44.4003 Y40.4345 I1.1534 J0.2130
G03 X44.9629 Y40.9552 I-0.5280 J1.1349
G01 X44.9791 Y40.9908
G01 X45.0236 Y41.0983
G01 X45.9035
G02 X45.8170 Y35.1010 I-1639.4655 J20.6312
G01 X45.6255 Y34.8221
G01 X45.4404 Y34.5524
G01 X37.7259 Y34.5520
G01 X30.0011 Y34.5516
G01 X25.8804 Y37.4717
G02 X20.4501 Y41.3247 I3091.9120 J4363.3805
G03 X20.0108 Y41.6203 I-3.4364 J-4.6330
G03 X19.6640 Y41.6598 I-0.3005 J-1.0968
G03 X18.5425 Y41.6476 I-0.1816 J-34.9695
G01 X17.2128 Y41.6194
G03 X16.9460 Y41.9479 I-1.5002 J-0.9457
G03 X15.4936 Y42.0250 I-0.7726 J-0.8358
G03 X15.2725 Y40.3509 I0.6825 J-0.9418
G03 X15.8380 Y39.9754 I0.9722 J0.8508
G01 Z-0.2500
G03 X16.9023 Y40.1860 I0.3501 J1.0255
G03 X17.2374 Y40.5163 I-2.8921 J3.2690
G01 X19.6277 Y40.5519
G01 X24.5039 Y37.0852
G03 X29.5230 Y33.5255 I776.0626 J1088.9205
G03 X29.7648 Y33.4716 I0.2293 J0.4590
G03 X31.4706 Y33.4441 I1.4476 J36.8623
G03 X45.7914 Y33.4588 I2.2681 J4753.5359
G01 X45.8031 Y33.4635
G03 X46.0279 Y33.6961 I-0.6563 J0.8592
G03 X46.1214 Y33.9386 I-0.4856 J0.3264
G02 X46.3920 Y34.4146 I1.6567 J-0.6270
G03 X46.6282 Y34.7687 I-3.2902 J2.4509
G01 X46.6396 Y34.8427
G03 X46.6892 Y36.3053 I-40.6931 J2.1137
G03 X46.7418 Y41.2472 I-204.6678 J4.6482
G01 X46.7382 Y41.4799
G01 X46.7324 Y41.6355
G03 X46.6849 Y41.7771 I-0.1986 J0.0121
G03 X46.4117 Y41.9336 I-0.2986 J-0.2044
G03 X45.7210 Y41.9603 I-0.5481 J-5.2308
G01 X45.0291
G03 X44.8082 Y42.2974 I-1.1166 J-0.4909
G03 X43.4002 Y42.5309 I-0.8550 J-0.7939
G03 X42.8001 Y41.3060 I0.5157 J-1.0121
G03 X44.4003 Y40.4345 I1.1534 J0.2130
G03 X44.9629 Y40.9552 I-0.5280 J1.1349
G01 X44.9791 Y40.9908
G01 X45.0236 Y41.0983
G01 X45.9035
G02 X45.8170 Y35.1010 I-1639.4655 J20.6312
G01 X45.6255 Y34.8221
G01 X45.4404 Y34.5524
G01 X37.7259 Y34.5520
G01 X30.0011 Y34.5516
G01 X25.8804 Y37.4717
G02 X20.4501 Y41.3247 I3091.9120 J4363.3805
G03 X20.0108 Y41.6203 I-3.4364 J-4.6330
G03 X19.6640 Y41.6598 I-0.3005 J-1.0968
G03 X18.5425 Y41.6476 I-0.1816 J-34.9695
G01 X17.2128 Y41.6194
G03 X16.9460 Y41.9479 I-1.5002 J-0.9457
G03 X15.4936 Y42.0250 I-0.7726 J-0.8358
G03 X15.2725 Y40.3509 I0.6825 J-0.9418
G03 X15.8380 Y39.9754 I0.9722 J0.8508
G00 Z5.0000


(No. 10: Parte 10)
G00 X15.8375 Y42.5158 Z5.0000
G00 Z0.5000
G01 Z0.0000 F350
G01 Z-0.2000
G03 X16.9000 Y42.7237 I0.3508 J1.0261
G03 X17.2310 Y43.0498 I-2.8164 J3.1902
G01 X18.8928 Y43.0713
G01 X20.5590 Y43.0927
G01 X25.5834 Y39.5198
G03 X30.7743 Y35.8399 I485.8346 J679.8261
G03 X31.0627 Y35.7932 I0.2789 J0.8088
G03 X32.7798 Y35.7681 I1.5299 J45.8728
G03 X42.6783 Y35.7706 I4.4017 J2116.5057
G03 X43.8888 Y35.8000 I-0.0325 J26.2739
G03 X44.2856 Y35.8475 I-0.0401 J2.0166
G03 X44.4465 Y35.9402 I-0.0291 J0.2367
G03 X44.5409 Y36.1683 I-0.8777 J0.4965
G03 X44.5621 Y36.7042 I-2.8064 J0.3797
G03 X44.5318 Y37.9428 I-122.2609 J-2.3718
G03 X44.7940 Y38.1771 I-0.7484 J1.1010
G03 X45.1017 Y38.8737 I-1.0655 J0.8869
G03 X44.5314 Y39.9737 I-1.1529 J0.1002
G03 X43.3202 Y39.9444 I-0.5818 J-0.9962
G03 X42.7981 Y38.7793 I0.5873 J-0.9627
G03 X43.2017 Y38.0760 I1.2631 J0.2572
G02 X43.3618 Y37.9349 I-0.3315 J-0.5376
G02 X43.4294 Y37.6884 I-0.4140 J-0.2462
G02 X43.4477 Y36.8799 I-11.9505 J-0.6737
G01 X31.2290
G01 X26.9600 Y39.9058
G02 X21.3815 Y43.8646 I3084.6457 J4352.5042
G03 X20.9411 Y44.1605 I-3.2317 J-4.3358
G03 X20.6606 Y44.1956 I-0.2683 J-1.0045
G03 X19.0089 Y44.1863 I-0.6032 J-39.6885
G01 X17.2130 Y44.1572
G03 X16.9464 Y44.4872 I-1.5035 J-0.9420
G03 X15.4936 Y44.5651 I-0.7731 J-0.8337
G03 X15.2725 Y42.8909 I0.6825 J-0.9418
G03 X15.8375 Y42.5158 I0.9705 J0.8486
G01 Z-0.2500
G03 X16.9000 Y42.7237 I0.3508 J1.0261
G03 X17.2310 Y43.0498 I-2.8164 J3.1902
G01 X18.8928 Y43.0713
G01 X20.5590 Y43.0927
G01 X25.5834 Y39.5198
G03 X30.7743 Y35.8399 I485.8346 J679.8261
G03 X31.0627 Y35.7932 I0.2789 J0.8088
G03 X32.7798 Y35.7681 I1.5299 J45.8728
G03 X42.6783 Y35.7706 I4.4017 J2116.5057
G03 X43.8888 Y35.8000 I-0.0325 J26.2739
G03 X44.2856 Y35.8475 I-0.0401 J2.0166
G03 X44.4465 Y35.9402 I-0.0291 J0.2367
G03 X44.5409 Y36.1683 I-0.8777 J0.4965
G03 X44.5621 Y36.7042 I-2.8064 J0.3797
G03 X44.5318 Y37.9428 I-122.2609 J-2.3718
G03 X44.7940 Y38.1771 I-0.7484 J1.1010
G03 X45.1017 Y38.8737 I-1.0655 J0.8869
G03 X44.5314 Y39.9737 I-1.1529 J0.1002
G03 X43.3202 Y39.9444 I-0.5818 J-0.9962
G03 X42.7981 Y38.7793 I0.5873 J-0.9627
G03 X43.2017 Y38.0760 I1.2631 J0.2572
G02 X43.3618 Y37.9349 I-0.3315 J-0.5376
G02 X43.4294 Y37.6884 I-0.4140 J-0.2462
G02 X43.4477 Y36.8799 I-11.9505 J-0.6737
G01 X31.2290
G01 X26.9600 Y39.9058
G02 X21.3815 Y43.8646 I3084.6457 J4352.5042
G03 X20.9411 Y44.1605 I-3.2317 J-4.3358
G03 X20.6606 Y44.1956 I-0.2683 J-1.0045
G03 X19.0089 Y44.1863 I-0.6032 J-39.6885
G01 X17.2130 Y44.1572
G03 X16.9464 Y44.4872 I-1.5035 J-0.9420
G03 X15.4936 Y44.5651 I-0.7731 J-0.8337
G03 X15.2725 Y42.8909 I0.6825 J-0.9418
G03 X15.8375 Y42.5158 I0.9705 J0.8486
G00 Z5.0000


(No. 11: Parte 11)
G00 X15.9135 Y45.0329 Z5.0000
G00 Z0.5000
G01 Z0.0000 F350
G01 Z-0.2000
G03 X16.9061 Y45.2698 I0.2733 J1.0527
G03 X17.2476 Y45.6068 I-3.0183 J3.3994
G02 X20.6829 Y45.6609 I4.6591 J-187.0434
G02 X20.8524 Y45.6590 I0.0294 J-4.9860
G01 X20.8951 Y45.6397
G02 X22.4482 Y44.6184 I-34.3590 J-53.9418
G02 X31.5113 Y38.4345 I-716.9232 J-1060.4479
G01 X31.5222 Y38.4315
G01 X35.2931 Y38.4310
G03 X35.8261 Y37.9237 I1.0179 J0.5358
G03 X37.2439 Y38.2689 I0.5113 J0.9844
G03 X37.4654 Y39.2075 I-0.9423 J0.7178
G03 X35.4035 Y39.6885 I-1.1461 J-0.2531
G01 X35.2898 Y39.5470
G01 X33.5746 Y39.5480
G01 X31.8509 Y39.5490
G01 X26.6990 Y43.0780
G03 X21.3862 Y46.7108 I-909.7238 J-1324.7066
G03 X21.1662 Y46.7672 I-0.2275 J-0.4303
G03 X19.8993 Y46.7685 I-0.6540 J-19.9149
G03 X17.2124 Y46.7008 I0.5952 J-76.9525
G03 X16.9459 Y47.0282 I-1.4961 J-0.9453
G03 X15.3849 Y47.0155 I-0.7738 J-0.8378
G03 X15.3708 Y45.3276 I0.7832 J-0.8506
G03 X15.9135 Y45.0329 I0.8833 J0.9795
G01 Z-0.2500
G03 X16.9061 Y45.2698 I0.2733 J1.0527
G03 X17.2476 Y45.6068 I-3.0183 J3.3994
G02 X20.6829 Y45.6609 I4.6591 J-187.0434
G02 X20.8524 Y45.6590 I0.0294 J-4.9860
G01 X20.8951 Y45.6397
G02 X22.4482 Y44.6184 I-34.3590 J-53.9418
G02 X31.5113 Y38.4345 I-716.9232 J-1060.4479
G01 X31.5222 Y38.4315
G01 X35.2931 Y38.4310
G03 X35.8261 Y37.9237 I1.0179 J0.5358
G03 X37.2439 Y38.2689 I0.5113 J0.9844
G03 X37.4654 Y39.2075 I-0.9423 J0.7178
G03 X35.4035 Y39.6885 I-1.1461 J-0.2531
G01 X35.2898 Y39.5470
G01 X33.5746 Y39.5480
G01 X31.8509 Y39.5490
G01 X26.6990 Y43.0780
G03 X21.3862 Y46.7108 I-909.7238 J-1324.7066
G03 X21.1662 Y46.7672 I-0.2275 J-0.4303
G03 X19.8993 Y46.7685 I-0.6540 J-19.9149
G03 X17.2124 Y46.7008 I0.5952 J-76.9525
G03 X16.9459 Y47.0282 I-1.4961 J-0.9453
G03 X15.3849 Y47.0155 I-0.7738 J-0.8378
G03 X15.3708 Y45.3276 I0.7832 J-0.8506
G03 X15.9135 Y45.0329 I0.8833 J0.9795
G00 Z5.0000


(No. 12: Parte 12)
G00 X13.0314 Y47.6423 Z5.0000
G00 Z0.5000
G01 Z0.0000 F350
G01 Z-0.2000
G03 X14.0257 Y47.9258 I0.1844 J1.2386
G03 X14.2503 Y48.2132 I-0.7974 J0.8545
G02 X14.9656 Y48.1662 I-0.3373 J-10.6109
G02 X15.1458 Y48.1263 I-0.0190 J-0.5125
G03 X15.6921 Y47.6564 I1.0520 J0.6707
G03 X16.7178 Y47.6745 I0.4957 J0.9806
G03 X17.0204 Y47.9141 I-0.7128 J1.2112
G01 X17.2266 Y48.1253
G01 X21.3646
G01 X26.0294 Y44.9890
G01 X26.4134 Y44.7309
G01 X26.7926 Y44.4759
G01 X27.1656 Y44.2251
G01 X27.5312 Y43.9793
G01 X27.8879 Y43.7394
G01 X28.2344 Y43.5064
G01 X28.5692 Y43.2812
G01 X28.8911 Y43.0647
G01 X29.1987 Y42.8579
G01 X29.4905 Y42.6616
G02 X31.7896 Y41.1144 I-3015.2992 J-4483.2343
G03 X35.2633 Y41.0014 I16.8761 J465.5690
G03 X35.4638 Y40.7282 I1.5145 J0.9011
G03 X36.1996 Y40.3478 I0.9191 J0.8760
G03 X37.1201 Y40.6562 I0.1279 J1.1461
G03 X37.4817 Y41.4136 I-1.0121 J0.9482
G03 X36.9114 Y42.5136 I-1.1529 J0.1002
G03 X35.8233 Y42.5450 I-0.5720 J-0.9552
G03 X35.3128 Y42.1202 I0.5283 J-1.1542
G02 X32.6633 Y42.1960 I1.4438 J96.8159
G02 X32.1066 Y42.2389 I0.4221 J9.1087
G01 X27.3124 Y45.4634
G01 X26.9185 Y45.7284
G01 X26.5305 Y45.9894
G01 X26.1498 Y46.2455
G01 X25.7776 Y46.4958
G01 X25.4155 Y46.7394
G01 X25.0647 Y46.9754
G01 X24.7266 Y47.2029
G01 X24.4026 Y47.4209
G01 X24.0940 Y47.6285
G01 X23.8023 Y47.8248
G02 X21.7031 Y49.2379 I3414.4523 J5074.5103
G01 X21.6924 Y49.2407
G01 X17.2130 Y49.2413
G03 X16.9761 Y49.5429 I-1.9940 J-1.3224
G03 X16.2879 Y49.8506 I-0.7279 J-0.7045
G03 X15.8519 Y49.8227 I-0.1324 J-1.3511
G03 X15.2664 Y49.4231 I0.3907 J-1.2011
G02 X15.1448 Y49.3037 I-0.2411 J0.1241
G02 X14.9191 Y49.2860 I-0.1617 J0.6125
G02 X14.3610 Y49.3366 I0.2098 J5.4087
G02 X14.2105 Y49.4462 I0.0508 J0.2280
G03 X12.3155 Y48.1023 I-0.9576 J-0.6577
G03 X13.0314 Y47.6423 I0.9487 J0.6894
G01 Z-0.2500
G03 X14.0257 Y47.9258 I0.1844 J1.2386
G03 X14.2503 Y48.2132 I-0.7974 J0.8545
G02 X14.9656 Y48.1662 I-0.3373 J-10.6109
G02 X15.1458 Y48.1263 I-0.0190 J-0.5125
G03 X15.6921 Y47.6564 I1.0520 J0.6707
G03 X16.7178 Y47.6745 I0.4957 J0.9806
G03 X17.0204 Y47.9141 I-0.7128 J1.2112
G01 X17.2266 Y48.1253
G01 X21.3646
G01 X26.0294 Y44.9890
G01 X26.4134 Y44.7309
G01 X26.7926 Y44.4759
G01 X27.1656 Y44.2251
G01 X27.5312 Y43.9793
G01 X27.8879 Y43.7394
G01 X28.2344 Y43.5064
G01 X28.5692 Y43.2812
G01 X28.8911 Y43.0647
G01 X29.1987 Y42.8579
G01 X29.4905 Y42.6616
G02 X31.7896 Y41.1144 I-3015.2992 J-4483.2343
G03 X35.2633 Y41.0014 I16.8761 J465.5690
G03 X35.4638 Y40.7282 I1.5145 J0.9011
G03 X36.1996 Y40.3478 I0.9191 J0.8760
G03 X37.1201 Y40.6562 I0.1279 J1.1461
G03 X37.4817 Y41.4136 I-1.0121 J0.9482
G03 X36.9114 Y42.5136 I-1.1529 J0.1002
G03 X35.8233 Y42.5450 I-0.5720 J-0.9552
G03 X35.3128 Y42.1202 I0.5283 J-1.1542
G02 X32.6633 Y42.1960 I1.4438 J96.8159
G02 X32.1066 Y42.2389 I0.4221 J9.1087
G01 X27.3124 Y45.4634
G01 X26.9185 Y45.7284
G01 X26.5305 Y45.9894
G01 X26.1498 Y46.2455
G01 X25.7776 Y46.4958
G01 X25.4155 Y46.7394
G01 X25.0647 Y46.9754
G01 X24.7266 Y47.2029
G01 X24.4026 Y47.4209
G01 X24.0940 Y47.6285
G01 X23.8023 Y47.8248
G02 X21.7031 Y49.2379 I3414.4523 J5074.5103
G01 X21.6924 Y49.2407
G01 X17.2130 Y49.2413
G03 X16.9761 Y49.5429 I-1.9940 J-1.3224
G03 X16.2879 Y49.8506 I-0.7279 J-0.7045
G03 X15.8519 Y49.8227 I-0.1324 J-1.3511
G03 X15.2664 Y49.4231 I0.3907 J-1.2011
G02 X15.1448 Y49.3037 I-0.2411 J0.1241
G02 X14.9191 Y49.2860 I-0.1617 J0.6125
G02 X14.3610 Y49.3366 I0.2098 J5.4087
G02 X14.2105 Y49.4462 I0.0508 J0.2280
G03 X12.3155 Y48.1023 I-0.9576 J-0.6577
G03 X13.0314 Y47.6423 I0.9487 J0.6894
G00 Z5.0000


(No. 13: Parte 13)
G00 X15.9138 Y50.1161 Z5.0000
G00 Z0.5000
G01 Z0.0000 F350
G01 Z-0.2000
G03 X16.7689 Y50.2422 I0.2798 J1.0651
G03 X17.0252 Y50.4592 I-0.8188 J1.2269
G01 X17.2356 Y50.6748
G01 X19.5151 Y50.6437
G01 X21.8009 Y50.6125
G01 X26.7343 Y47.2483
G01 X27.1392 Y46.9723
G01 X27.5368 Y46.7011
G01 X27.9258 Y46.4358
G01 X28.3049 Y46.1773
G01 X28.6726 Y45.9264
G01 X29.0277 Y45.6843
G01 X29.3687 Y45.4516
G01 X29.6943 Y45.2295
G02 X32.1439 Y43.5569 I-729.4121 J-1070.8647
G02 X34.1306 Y43.5436 I0.3521 J-96.1710
G02 X35.3004 Y43.4991 I-0.4886 J-28.2053
G03 X35.7914 Y43.0216 I0.9810 J0.5175
G03 X37.1926 Y43.2842 I0.5447 J0.9629
G03 X37.4775 Y44.2166 I-0.9150 J0.7894
G03 X36.6525 Y45.1680 I-1.1839 J-0.1933
G03 X35.6687 Y44.9981 I-0.3167 J-1.0995
G03 X35.4322 Y44.7944 I0.8349 J-1.2083
G01 X35.2697 Y44.6217
G01 X32.4756 Y44.6817
G01 X27.6460 Y47.9739
G01 X27.2493 Y48.2444
G01 X26.8589 Y48.5105
G01 X26.4763 Y48.7713
G01 X26.1028 Y49.0260
G01 X25.7397 Y49.2735
G01 X25.3884 Y49.5130
G01 X25.0503 Y49.7435
G01 X24.7267 Y49.9641
G01 X24.4190 Y50.1739
G01 X24.1285 Y50.3720
G01 X23.8566 Y50.5573
G01 X23.6047 Y50.7291
G01 X23.3741 Y50.8864
G03 X22.1274 Y51.7357 I-325.0078 J-475.7179
G02 X17.2035 Y51.7941 I-0.6077 J156.1921
G03 X16.9614 Y52.0980 I-1.6087 J-1.0335
G03 X15.8049 Y52.3373 I-0.7646 J-0.7810
G03 X15.5596 Y52.2206 I0.4623 J-1.2888
G01 X15.3411 Y52.0891
G01 X11.9592 Y53.2167
G01 X11.4334 Y53.8816
G01 X10.9092 Y54.5444
G02 X10.9723 Y61.4614 I424.5467 J-0.4156
G01 X11.5689 Y61.9183
G01 X12.1717 Y62.3799
G01 X13.6990 Y62.4105
G01 X15.2181 Y62.4410
G03 X15.4618 Y62.1668 I1.1862 J0.8084
G03 X16.1626 Y61.8543 I0.8872 J1.0474
G03 X17.2626 Y62.4245 I0.1001 J1.1529
G03 X17.2333 Y63.6357 I-0.9963 J0.5818
G03 X16.0670 Y64.1577 I-0.9629 J-0.5875
G03 X15.3627 Y63.7503 I0.2487 J-1.2423
G01 X15.3368 Y63.7159
G01 X15.2280 Y63.5619
G02 X12.4428 Y63.5061 I-2.4875 J54.6043
G03 X11.8847 Y63.4827 I-0.0892 J-4.5543
G03 X11.6390 Y63.3733 I0.0476 J-0.4377
G02 X10.1461 Y62.2421 I-283.6216 J372.7636
G03 X10.0002 Y62.1396 I1.0260 J-1.6139
G03 X9.9063 Y61.9340 I0.2680 J-0.2467
G03 X9.8532 Y61.2386 I5.2167 J-0.7484
G03 X9.8126 Y57.6673 I245.4453 J-4.5767
G03 X9.8089 Y54.5199 I140.9455 J-1.7380
G03 X9.8260 Y54.1632 I3.0877 J-0.0307
G01 X9.8334 Y54.1348
G03 X10.6702 Y53.0469 I24.8233 J18.2290
G03 X11.2142 Y52.3739 I18.3018 J14.2396
G03 X11.4655 Y52.2381 I0.5242 J0.6693
G03 X13.1821 Y51.6426 I12.3689 J32.8843
G01 X15.0101 Y51.0378
G03 X15.1395 Y50.6991 I1.5205 J0.3868
G03 X15.9138 Y50.1161 I1.0473 J0.5852
G01 Z-0.2500
G03 X16.7689 Y50.2422 I0.2798 J1.0651
G03 X17.0252 Y50.4592 I-0.8188 J1.2269
G01 X17.2356 Y50.6748
G01 X19.5151 Y50.6437
G01 X21.8009 Y50.6125
G01 X26.7343 Y47.2483
G01 X27.1392 Y46.9723
G01 X27.5368 Y46.7011
G01 X27.9258 Y46.4358
G01 X28.3049 Y46.1773
G01 X28.6726 Y45.9264
G01 X29.0277 Y45.6843
G01 X29.3687 Y45.4516
G01 X29.6943 Y45.2295
G02 X32.1439 Y43.5569 I-729.4121 J-1070.8647
G02 X34.1306 Y43.5436 I0.3521 J-96.1710
G02 X35.3004 Y43.4991 I-0.4886 J-28.2053
G03 X35.7914 Y43.0216 I0.9810 J0.5175
G03 X37.1926 Y43.2842 I0.5447 J0.9629
G03 X37.4775 Y44.2166 I-0.9150 J0.7894
G03 X36.6525 Y45.1680 I-1.1839 J-0.1933
G03 X35.6687 Y44.9981 I-0.3167 J-1.0995
G03 X35.4322 Y44.7944 I0.8349 J-1.2083
G01 X35.2697 Y44.6217
G01 X32.4756 Y44.6817
G01 X27.6460 Y47.9739
G01 X27.2493 Y48.2444
G01 X26.8589 Y48.5105
G01 X26.4763 Y48.7713
G01 X26.1028 Y49.0260
G01 X25.7397 Y49.2735
G01 X25.3884 Y49.5130
G01 X25.0503 Y49.7435
G01 X24.7267 Y49.9641
G01 X24.4190 Y50.1739
G01 X24.1285 Y50.3720
G01 X23.8566 Y50.5573
G01 X23.6047 Y50.7291
G01 X23.3741 Y50.8864
G03 X22.1274 Y51.7357 I-325.0078 J-475.7179
G02 X17.2035 Y51.7941 I-0.6077 J156.1921
G03 X16.9614 Y52.0980 I-1.6087 J-1.0335
G03 X15.8049 Y52.3373 I-0.7646 J-0.7810
G03 X15.5596 Y52.2206 I0.4623 J-1.2888
G01 X15.3411 Y52.0891
G01 X11.9592 Y53.2167
G01 X11.4334 Y53.8816
G01 X10.9092 Y54.5444
G02 X10.9723 Y61.4614 I424.5467 J-0.4156
G01 X11.5689 Y61.9183
G01 X12.1717 Y62.3799
G01 X13.6990 Y62.4105
G01 X15.2181 Y62.4410
G03 X15.4618 Y62.1668 I1.1862 J0.8084
G03 X16.1626 Y61.8543 I0.8872 J1.0474
G03 X17.2626 Y62.4245 I0.1001 J1.1529
G03 X17.2333 Y63.6357 I-0.9963 J0.5818
G03 X16.0670 Y64.1577 I-0.9629 J-0.5875
G03 X15.3627 Y63.7503 I0.2487 J-1.2423
G01 X15.3368 Y63.7159
G01 X15.2280 Y63.5619
G02 X12.4428 Y63.5061 I-2.4875 J54.6043
G03 X11.8847 Y63.4827 I-0.0892 J-4.5543
G03 X11.6390 Y63.3733 I0.0476 J-0.4377
G02 X10.1461 Y62.2421 I-283.6216 J372.7636
G03 X10.0002 Y62.1396 I1.0260 J-1.6139
G03 X9.9063 Y61.9340 I0.2680 J-0.2467
G03 X9.8532 Y61.2386 I5.2167 J-0.7484
G03 X9.8126 Y57.6673 I245.4453 J-4.5767
G03 X9.8089 Y54.5199 I140.9455 J-1.7380
G03 X9.8260 Y54.1632 I3.0877 J-0.0307
G01 X9.8334 Y54.1348
G03 X10.6702 Y53.0469 I24.8233 J18.2290
G03 X11.2142 Y52.3739 I18.3018 J14.2396
G03 X11.4655 Y52.2381 I0.5242 J0.6693
G03 X13.1821 Y51.6426 I12.3689 J32.8843
G01 X15.0101 Y51.0378
G03 X15.1395 Y50.6991 I1.5205 J0.3868
G03 X15.9138 Y50.1161 I1.0473 J0.5852
G00 Z5.0000


(No. 14: Parte 14)
G00 X15.9114 Y52.6539 Z5.0000
G00 Z0.5000
G01 Z0.0000 F350
G01 Z-0.2000
G03 X16.8984 Y52.8822 I0.2765 J1.0522
G03 X17.2266 Y53.2052 I-2.7622 J3.1337
G01 X22.1284
G01 X26.5595 Y50.2377
G01 X26.9254 Y49.9926
G01 X27.2892 Y49.7490
G01 X27.6493 Y49.5078
G01 X28.0044 Y49.2700
G01 X28.3532 Y49.0364
G01 X28.6941 Y48.8081
G01 X29.0258 Y48.5859
G01 X29.3470 Y48.3708
G01 X29.6562 Y48.1637
G01 X29.9520 Y47.9656
G01 X30.2330 Y47.7773
G01 X30.4979 Y47.5999
G01 X30.7453 Y47.4342
G03 X32.7430 Y46.0966 I1110.9193 J1657.1256
G02 X34.6610 Y46.0784 I0.4134 J-57.5064
G02 X35.2389 Y46.0358 I-0.0611 J-4.7686
G02 X35.3632 Y45.9374 I-0.0258 J-0.1603
G03 X35.7913 Y45.5616 I0.9033 J0.5974
G03 X37.1926 Y45.8240 I0.5450 J0.9623
G03 X37.4776 Y46.7564 I-0.9150 J0.7894
G03 X36.6527 Y47.7078 I-1.1839 J-0.1932
G03 X35.6691 Y47.5382 I-0.3169 J-1.0994
G03 X35.4328 Y47.3348 I0.8329 J-1.2062
G01 X35.2708 Y47.1626
G01 X34.1578 Y47.1969
G01 X33.0366 Y47.2313
G01 X28.2225 Y50.4575
G01 X27.8267 Y50.7228
G01 X27.4364 Y50.9844
G01 X27.0529 Y51.2414
G01 X26.6778 Y51.4928
G01 X26.3123 Y51.7378
G01 X25.9579 Y51.9753
G01 X25.6159 Y52.2045
G01 X25.2878 Y52.4245
G01 X24.9750 Y52.6342
G01 X24.6787 Y52.8329
G02 X22.4741 Y54.3127 I602.2907 J899.6359
G01 X22.4642 Y54.3179
G01 X22.4535 Y54.3207
G01 X17.2130 Y54.3212
G03 X16.9456 Y54.6488 I-1.4982 J-0.9503
G03 X15.3849 Y54.6355 I-0.7733 J-0.8392
G03 X15.3707 Y52.9476 I0.7832 J-0.8506
G03 X15.9114 Y52.6539 I0.8777 J0.9714
G01 Z-0.2500
G03 X16.8984 Y52.8822 I0.2765 J1.0522
G03 X17.2266 Y53.2052 I-2.7622 J3.1337
G01 X22.1284
G01 X26.5595 Y50.2377
G01 X26.9254 Y49.9926
G01 X27.2892 Y49.7490
G01 X27.6493 Y49.5078
G01 X28.0044 Y49.2700
G01 X28.3532 Y49.0364
G01 X28.6941 Y48.8081
G01 X29.0258 Y48.5859
G01 X29.3470 Y48.3708
G01 X29.6562 Y48.1637
G01 X29.9520 Y47.9656
G01 X30.2330 Y47.7773
G01 X30.4979 Y47.5999
G01 X30.7453 Y47.4342
G03 X32.7430 Y46.0966 I1110.9193 J1657.1256
G02 X34.6610 Y46.0784 I0.4134 J-57.5064
G02 X35.2389 Y46.0358 I-0.0611 J-4.7686
G02 X35.3632 Y45.9374 I-0.0258 J-0.1603
G03 X35.7913 Y45.5616 I0.9033 J0.5974
G03 X37.1926 Y45.8240 I0.5450 J0.9623
G03 X37.4776 Y46.7564 I-0.9150 J0.7894
G03 X36.6527 Y47.7078 I-1.1839 J-0.1932
G03 X35.6691 Y47.5382 I-0.3169 J-1.0994
G03 X35.4328 Y47.3348 I0.8329 J-1.2062
G01 X35.2708 Y47.1626
G01 X34.1578 Y47.1969
G01 X33.0366 Y47.2313
G01 X28.2225 Y50.4575
G01 X27.8267 Y50.7228
G01 X27.4364 Y50.9844
G01 X27.0529 Y51.2414
G01 X26.6778 Y51.4928
G01 X26.3123 Y51.7378
G01 X25.9579 Y51.9753
G01 X25.6159 Y52.2045
G01 X25.2878 Y52.4245
G01 X24.9750 Y52.6342
G01 X24.6787 Y52.8329
G02 X22.4741 Y54.3127 I602.2907 J899.6359
G01 X22.4642 Y54.3179
G01 X22.4535 Y54.3207
G01 X17.2130 Y54.3212
G03 X16.9456 Y54.6488 I-1.4982 J-0.9503
G03 X15.3849 Y54.6355 I-0.7733 J-0.8392
G03 X15.3707 Y52.9476 I0.7832 J-0.8506
G03 X15.9114 Y52.6539 I0.8777 J0.9714
G00 Z5.0000


(No. 15: Parte 16)
G00 X33.1090 Y51.2022 Z5.0000
G00 Z0.5000
G01 Z0.0000 F350
G01 Z-0.2000
G03 X33.3865 Y51.1440 I0.2715 J0.6035
G03 X34.2767 Y51.1312 I0.7212 J19.1680
G01 X35.2931 Y51.1310
G03 X35.8261 Y50.6237 I1.0179 J0.5358
G03 X37.2438 Y50.9689 I0.5113 J0.9843
G03 X37.4653 Y51.9075 I-0.9423 J0.7178
G03 X35.4034 Y52.3884 I-1.1461 J-0.2531
G01 X35.2897 Y52.2470
G01 X33.5605
G01 X27.5583 Y56.5364
G02 X27.5175 Y57.5528 I25.9467 J1.5492
G02 X27.5382 Y57.7092 I0.3066 J0.0391
G02 X27.6319 Y57.7796 I0.3175 J-0.3250
G03 X28.1307 Y58.7665 I-0.6977 J0.9722
G03 X26.3802 Y59.7426 I-1.1702 J-0.0408
G03 X25.9170 Y59.2186 I0.6257 J-1.0198
G03 X26.0224 Y58.0678 I0.9619 J-0.4921
G03 X26.1871 Y57.8790 I1.2290 J0.9059
G01 X26.4096 Y57.6619
G03 X26.4446 Y56.4470 I49.0032 J0.8060
G03 X26.4960 Y56.0191 I1.8258 J0.0022
G03 X26.7135 Y55.7620 I0.4176 J0.1327
G02 X32.9715 Y51.2965 I-3224.9550 J-4526.0972
G03 X33.1090 Y51.2022 I1.2546 J1.6809
G01 Z-0.2500
G03 X33.3865 Y51.1440 I0.2715 J0.6035
G03 X34.2767 Y51.1312 I0.7212 J19.1680
G01 X35.2931 Y51.1310
G03 X35.8261 Y50.6237 I1.0179 J0.5358
G03 X37.2438 Y50.9689 I0.5113 J0.9843
G03 X37.4653 Y51.9075 I-0.9423 J0.7178
G03 X35.4034 Y52.3884 I-1.1461 J-0.2531
G01 X35.2897 Y52.2470
G01 X33.5605
G01 X27.5583 Y56.5364
G02 X27.5175 Y57.5528 I25.9467 J1.5492
G02 X27.5382 Y57.7092 I0.3066 J0.0391
G02 X27.6319 Y57.7796 I0.3175 J-0.3250
G03 X28.1307 Y58.7665 I-0.6977 J0.9722
G03 X26.3802 Y59.7426 I-1.1702 J-0.0408
G03 X25.9170 Y59.2186 I0.6257 J-1.0198
G03 X26.0224 Y58.0678 I0.9619 J-0.4921
G03 X26.1871 Y57.8790 I1.2290 J0.9059
G01 X26.4096 Y57.6619
G03 X26.4446 Y56.4470 I49.0032 J0.8060
G03 X26.4960 Y56.0191 I1.8258 J0.0022
G03 X26.7135 Y55.7620 I0.4176 J0.1327
G02 X32.9715 Y51.2965 I-3224.9550 J-4526.0972
G03 X33.1090 Y51.2022 I1.2546 J1.6809
G00 Z5.0000


(No. 16: Parte 15)
G00 X13.0695 Y55.1674 Z5.0000
G00 Z0.5000
G01 Z0.0000 F350
G01 Z-0.2000
G03 X14.1712 Y55.6320 I0.1516 J1.1789
G03 X13.9577 Y57.2468 I-0.8968 J0.7030
G01 X13.9085 Y57.2795
G01 X13.7879 Y57.3541
G01 Y59.9465
G01 X14.4767 Y59.9275
G01 X15.1961 Y59.9077
G03 X15.5184 Y59.5863 I1.8704 J1.5536
G03 X16.4062 Y59.3145 I0.7592 J0.8942
G03 X17.2667 Y59.8945 I-0.1735 J1.1859
G03 X17.3045 Y60.9583 I-0.9570 J0.5666
G03 X16.4998 Y61.6157 I-1.0462 J-0.4594
G03 X15.3330 Y61.1702 I-0.2184 J-1.1787
G01 X15.2218 Y61.0129
G03 X13.4587 Y61.0518 I-2.5040 J-73.5774
G03 X13.0831 Y61.0303 I-0.0707 J-2.0589
G03 X12.8234 Y60.8984 I0.1420 J-0.6013
G03 X12.7176 Y60.6713 I0.3095 J-0.2823
G03 X12.6763 Y60.0400 I4.6896 J-0.6240
G03 X12.6719 Y57.3790 I243.9670 J-1.7317
G03 X12.3121 Y57.0104 I2.1378 J-2.4468
G03 X12.0936 Y56.2533 I0.8281 J-0.6490
G03 X12.8606 Y55.2209 I1.2029 J0.0925
G01 X12.9645 Y55.1886
G01 X13.0695 Y55.1674
G01 Z-0.2500
G03 X14.1712 Y55.6320 I0.1516 J1.1789
G03 X13.9577 Y57.2468 I-0.8968 J0.7030
G01 X13.9085 Y57.2795
G01 X13.7879 Y57.3541
G01 Y59.9465
G01 X14.4767 Y59.9275
G01 X15.1961 Y59.9077
G03 X15.5184 Y59.5863 I1.8704 J1.5536
G03 X16.4062 Y59.3145 I0.7592 J0.8942
G03 X17.2667 Y59.8945 I-0.1735 J1.1859
G03 X17.3045 Y60.9583 I-0.9570 J0.5666
G03 X16.4998 Y61.6157 I-1.0462 J-0.4594
G03 X15.3330 Y61.1702 I-0.2184 J-1.1787
G01 X15.2218 Y61.0129
G03 X13.4587 Y61.0518 I-2.5040 J-73.5774
G03 X13.0831 Y61.0303 I-0.0707 J-2.0589
G03 X12.8234 Y60.8984 I0.1420 J-0.6013
G03 X12.7176 Y60.6713 I0.3095 J-0.2823
G03 X12.6763 Y60.0400 I4.6896 J-0.6240
G03 X12.6719 Y57.3790 I243.9670 J-1.7317
G03 X12.3121 Y57.0104 I2.1378 J-2.4468
G03 X12.0936 Y56.2533 I0.8281 J-0.6490
G03 X12.8606 Y55.2209 I1.2029 J0.0925
G01 X12.9645 Y55.1886
G01 X13.0695 Y55.1674
G00 Z5.0000


(No. 17: Parte 17)
G00 X33.4910 Y53.9159 Z5.0000
G00 Z0.5000
G01 Z0.0000 F350
G01 Z-0.2000
G03 X33.8591 Y53.8410 I0.4294 J1.1683
G03 X35.2485 Y53.7451 I2.9098 J32.0518
G01 X35.3775 Y53.5518
G03 X36.9771 Y53.2384 I0.9598 J0.6598
G03 X37.3593 Y53.7072 I-0.6829 J0.9469
G03 X37.1461 Y55.0314 I-0.9907 J0.5198
G03 X36.0984 Y55.3440 I-0.8016 J-0.7746
G03 X35.4576 Y54.9950 I0.3379 J-1.3832
G01 X35.4317 Y54.9662
G01 X35.3421 Y54.8596
G01 X34.6582 Y54.8992
G01 X33.9645 Y54.9394
G02 X30.7158 Y57.3958 I188.5376 J252.7343
G02 X30.6133 Y57.4771 I1.7632 J2.3271
G02 X30.5821 Y57.5935 I0.2260 J0.1231
G02 X30.5448 Y58.5823 I13.5430 J1.0055
G02 X30.5169 Y60.5846 I826.8853 J12.5198
G03 X30.4745 Y62.0678 I-28.6829 J-0.0792
G03 X30.4438 Y62.2811 I-0.9531 J-0.0281
G03 X30.2382 Y62.5025 I-0.3411 J-0.1106
G03 X29.9069 Y62.5584 I-0.3751 J-1.2136
G03 X28.5244 Y62.5766 I-1.0707 J-28.9172
G02 X23.3130 Y62.6320 I1.3890 J375.8277
G02 X23.3756 Y67.3264 I209.8941 J-0.4510
G01 X25.1147 Y67.6902
G02 X27.8837 Y68.2689 I2029.6599 J-9705.9453
G01 X28.1683 Y68.3283
G01 X28.4550 Y68.3882
G01 X28.7426 Y68.4482
G01 X29.0296 Y68.5081
G01 X29.3148 Y68.5677
G01 X29.5968 Y68.6266
G01 X29.8744 Y68.6845
G01 X30.1461 Y68.7412
G01 X33.3945 Y69.4192
G01 X48.3467
G01 X53.0095 Y67.4500
G02 X59.6829 Y64.6177 I-470.0984 J-1116.9293
G03 X66.7316 Y64.5510 I12.3380 J930.6434
G02 X66.6754 Y41.9205 I-4858.7679 J0.7608
G02 X66.0783 Y41.8831 I-0.6671 J5.8653
G02 X63.1883 Y41.8285 I-4.6631 J170.3498
G03 X62.9812 Y42.0967 I-0.9280 J-0.5026
G03 X62.1613 Y42.4187 I-0.8471 J-0.9525
G03 X61.1590 Y41.7805 I0.0320 J-1.1565
G03 X61.1660 Y40.6970 I0.9913 J-0.5354
G03 X61.7279 Y40.1731 I1.1544 J0.6748
G03 X62.5782 Y40.1706 I0.4283 J1.0966
G03 X63.1128 Y40.5542 I-0.3664 J1.0751
G01 X63.2298 Y40.7134
G03 X66.3577 Y40.7847 I-1.8610 J150.4622
G03 X67.3783 Y40.8402 I-0.1918 J12.9294
G03 X67.5628 Y40.8869 I-0.0359 J0.5292
G03 X67.7015 Y41.0489 I-0.0382 J0.1731
G03 X67.7522 Y41.5441 I-3.4943 J0.6076
G03 X67.7955 Y43.9946 I-75.2995 J2.5581
G03 X67.8402 Y63.3673 I-4978.4806 J21.1626
G03 X67.8236 Y64.9572 I-60.7103 J0.1608
G03 X67.7949 Y65.3428 I-2.3684 J0.0176
G03 X67.6900 Y65.5199 I-0.4036 J-0.1193
G03 X67.4407 Y65.6063 I-0.2798 J-0.4048
G03 X66.6166 Y65.6541 I-0.8933 J-8.2772
G03 X63.7026 Y65.6855 I-4.2312 J-257.7166
G01 X59.9771 Y65.7153
G01 X54.2813 Y68.1210
G01 X48.5765 Y70.5305
G01 X48.5645 Y70.5339
G01 X40.9222 Y70.5348
G01 X33.2821 Y70.5351
G02 X24.5607 Y68.7150 I-1525.1406 J7285.9501
G03 X22.6058 Y68.2859 I15.0655 J-73.3096
G03 X22.3923 Y68.1829 I0.0845 J-0.4476
G03 X22.3022 Y67.9656 I0.3129 J-0.2571
G03 X22.2524 Y67.2864 I5.5285 J-0.7474
G03 X22.2049 Y63.3229 I344.4269 J-6.1027
G03 X22.2125 Y62.0971 I27.7435 J-0.4410
G03 X22.2422 Y61.8428 I1.1045 J-0.0003
G03 X22.3541 Y61.6506 I0.4439 J0.1297
G03 X22.5908 Y61.5642 I0.2721 J0.3783
G03 X23.3510 Y61.5164 I0.8278 J7.0961
G03 X27.3358 Y61.4735 I8.1955 J575.5754
G02 X29.3820 Y61.4479 I-1.5564 J-206.5442
G02 X29.4378 Y58.1177 I-304.9121 J-6.7739
G03 X29.4752 Y57.1350 I13.2134 J0.0111
G03 X29.5131 Y56.9577 I0.5285 J0.0202
G01 X29.5268 Y56.9332
G03 X30.1326 Y56.4459 I8.3161 J9.7159
G03 X33.4020 Y53.9737 I86.4123 J110.8791
G01 X33.4734 Y53.9257
G01 X33.4910 Y53.9159
G01 Z-0.2500
G03 X33.8591 Y53.8410 I0.4294 J1.1683
G03 X35.2485 Y53.7451 I2.9098 J32.0518
G01 X35.3775 Y53.5518
G03 X36.9771 Y53.2384 I0.9598 J0.6598
G03 X37.3593 Y53.7072 I-0.6829 J0.9469
G03 X37.1461 Y55.0314 I-0.9907 J0.5198
G03 X36.0984 Y55.3440 I-0.8016 J-0.7746
G03 X35.4576 Y54.9950 I0.3379 J-1.3832
G01 X35.4317 Y54.9662
G01 X35.3421 Y54.8596
G01 X34.6582 Y54.8992
G01 X33.9645 Y54.9394
G02 X30.7158 Y57.3958 I188.5376 J252.7343
G02 X30.6133 Y57.4771 I1.7632 J2.3271
G02 X30.5821 Y57.5935 I0.2260 J0.1231
G02 X30.5448 Y58.5823 I13.5430 J1.0055
G02 X30.5169 Y60.5846 I826.8853 J12.5198
G03 X30.4745 Y62.0678 I-28.6829 J-0.0792
G03 X30.4438 Y62.2811 I-0.9531 J-0.0281
G03 X30.2382 Y62.5025 I-0.3411 J-0.1106
G03 X29.9069 Y62.5584 I-0.3751 J-1.2136
G03 X28.5244 Y62.5766 I-1.0707 J-28.9172
G02 X23.3130 Y62.6320 I1.3890 J375.8277
G02 X23.3756 Y67.3264 I209.8941 J-0.4510
G01 X25.1147 Y67.6902
G02 X27.8837 Y68.2689 I2029.6599 J-9705.9453
G01 X28.1683 Y68.3283
G01 X28.4550 Y68.3882
G01 X28.7426 Y68.4482
G01 X29.0296 Y68.5081
G01 X29.3148 Y68.5677
G01 X29.5968 Y68.6266
G01 X29.8744 Y68.6845
G01 X30.1461 Y68.7412
G01 X33.3945 Y69.4192
G01 X48.3467
G01 X53.0095 Y67.4500
G02 X59.6829 Y64.6177 I-470.0984 J-1116.9293
G03 X66.7316 Y64.5510 I12.3380 J930.6434
G02 X66.6754 Y41.9205 I-4858.7679 J0.7608
G02 X66.0783 Y41.8831 I-0.6671 J5.8653
G02 X63.1883 Y41.8285 I-4.6631 J170.3498
G03 X62.9812 Y42.0967 I-0.9280 J-0.5026
G03 X62.1613 Y42.4187 I-0.8471 J-0.9525
G03 X61.1590 Y41.7805 I0.0320 J-1.1565
G03 X61.1660 Y40.6970 I0.9913 J-0.5354
G03 X61.7279 Y40.1731 I1.1544 J0.6748
G03 X62.5782 Y40.1706 I0.4283 J1.0966
G03 X63.1128 Y40.5542 I-0.3664 J1.0751
G01 X63.2298 Y40.7134
G03 X66.3577 Y40.7847 I-1.8610 J150.4622
G03 X67.3783 Y40.8402 I-0.1918 J12.9294
G03 X67.5628 Y40.8869 I-0.0359 J0.5292
G03 X67.7015 Y41.0489 I-0.0382 J0.1731
G03 X67.7522 Y41.5441 I-3.4943 J0.6076
G03 X67.7955 Y43.9946 I-75.2995 J2.5581
G03 X67.8402 Y63.3673 I-4978.4806 J21.1626
G03 X67.8236 Y64.9572 I-60.7103 J0.1608
G03 X67.7949 Y65.3428 I-2.3684 J0.0176
G03 X67.6900 Y65.5199 I-0.4036 J-0.1193
G03 X67.4407 Y65.6063 I-0.2798 J-0.4048
G03 X66.6166 Y65.6541 I-0.8933 J-8.2772
G03 X63.7026 Y65.6855 I-4.2312 J-257.7166
G01 X59.9771 Y65.7153
G01 X54.2813 Y68.1210
G01 X48.5765 Y70.5305
G01 X48.5645 Y70.5339
G01 X40.9222 Y70.5348
G01 X33.2821 Y70.5351
G02 X24.5607 Y68.7150 I-1525.1406 J7285.9501
G03 X22.6058 Y68.2859 I15.0655 J-73.3096
G03 X22.3923 Y68.1829 I0.0845 J-0.4476
G03 X22.3022 Y67.9656 I0.3129 J-0.2571
G03 X22.2524 Y67.2864 I5.5285 J-0.7474
G03 X22.2049 Y63.3229 I344.4269 J-6.1027
G03 X22.2125 Y62.0971 I27.7435 J-0.4410
G03 X22.2422 Y61.8428 I1.1045 J-0.0003
G03 X22.3541 Y61.6506 I0.4439 J0.1297
G03 X22.5908 Y61.5642 I0.2721 J0.3783
G03 X23.3510 Y61.5164 I0.8278 J7.0961
G03 X27.3358 Y61.4735 I8.1955 J575.5754
G02 X29.3820 Y61.4479 I-1.5564 J-206.5442
G02 X29.4378 Y58.1177 I-304.9121 J-6.7739
G03 X29.4752 Y57.1350 I13.2134 J0.0111
G03 X29.5131 Y56.9577 I0.5285 J0.0202
G01 X29.5268 Y56.9332
G03 X30.1326 Y56.4459 I8.3161 J9.7159
G03 X33.4020 Y53.9737 I86.4123 J110.8791
G01 X33.4734 Y53.9257
G01 X33.4910 Y53.9159
G00 Z5.0000


(No. 18: Parte 25)
G00 X26.7413 Y64.0272 Z5.0000
G00 Z0.5000
G01 Z0.0000 F350
G01 Z-0.2000
G03 X27.6904 Y64.1177 I0.3755 J1.0845
G03 X28.1118 Y64.5217 I-0.9969 J1.4614
G01 X28.1250 Y64.5451
G01 X28.1310 Y64.5597
G02 X28.8001 Y64.6134 I0.8122 J-5.9330
G01 X29.5092 Y64.6426
G03 X34.4703 Y66.7100 I-900.1570 J2167.0869
G01 X41.1703 Y66.7545
G01 X47.8690 Y66.7989
G01 X53.4467 Y64.2400
G01 X59.0346 Y61.6765
G01 X59.0448 Y61.6731
G02 X64.5000 Y61.6166 I0.3839 J-226.2063
G01 X64.4690 Y53.0263
G02 X64.4208 Y44.4833 I-1182.7109 J2.3920
G01 X64.4164 Y44.4072
G02 X63.8033 Y44.3830 I-0.6955 J9.8512
G01 X63.1881 Y44.3724
G03 X62.9806 Y44.6379 I-0.9221 J-0.5068
G03 X62.1613 Y44.9587 I-0.8490 J-0.9620
G03 X61.1590 Y44.3205 I0.0320 J-1.1565
G03 X61.1660 Y43.2370 I0.9913 J-0.5354
G03 X61.7281 Y42.7130 I1.1543 J0.6747
G03 X62.5755 Y42.7102 I0.4274 J1.1015
G03 X63.1126 Y43.0902 I-0.3679 J1.0896
G01 X63.2301 Y43.2465
G03 X64.7053 Y43.2972 I-1.4568 J63.8163
G03 X65.2252 Y43.3570 I-0.0249 J2.5092
G03 X65.4983 Y43.6092 I-0.0710 J0.3508
G03 X65.5283 Y44.1926 I-6.1988 J0.6108
G03 X65.5705 Y49.9012 I-430.6317 J6.0395
G03 X65.5966 Y60.8658 I-2094.4759 J10.4565
G03 X65.5799 Y62.1093 I-37.5551 J0.1196
G03 X65.5509 Y62.4249 I-1.6747 J0.0053
G03 X65.4474 Y62.5967 I-0.4267 J-0.1401
G03 X65.2281 Y62.6835 I-0.2626 J-0.3429
G03 X64.5540 Y62.7320 I-0.7429 J-5.6177
G03 X62.2313 Y62.7636 I-3.2936 J-156.6793
G01 X59.2786 Y62.7927
G01 X53.6990 Y65.3484
G01 X48.1096 Y67.9086
G01 X48.0993 Y67.9120
G01 X48.0885 Y67.9131
G01 X41.1683 Y67.8670
G01 X34.2481 Y67.8209
G01 X34.2360 Y67.8193
G03 X32.5297 Y67.1044 I3037.9967 J-7253.6405
G02 X31.6338 Y66.7291 I-3855.7098 J9202.9264
G02 X31.1668 Y66.5336 I-3736.5051 J8920.8128
G01 X29.2980 Y65.7509
G01 X28.7024 Y65.7238
G01 X28.1214 Y65.6974
G03 X27.8466 Y65.9847 I-1.7844 J-1.4321
G03 X26.6703 Y66.1669 I-0.7375 J-0.8733
G03 X26.0237 Y65.5827 I0.4125 J-1.1066
G03 X25.9490 Y64.9388 I1.2743 J-0.4740
G03 X26.2040 Y64.3664 I0.9091 J0.0619
G03 X26.7413 Y64.0272 I0.9138 J0.8523
G01 Z-0.2500
G03 X27.6904 Y64.1177 I0.3755 J1.0845
G03 X28.1118 Y64.5217 I-0.9969 J1.4614
G01 X28.1250 Y64.5451
G01 X28.1310 Y64.5597
G02 X28.8001 Y64.6134 I0.8122 J-5.9330
G01 X29.5092 Y64.6426
G03 X34.4703 Y66.7100 I-900.1570 J2167.0869
G01 X41.1703 Y66.7545
G01 X47.8690 Y66.7989
G01 X53.4467 Y64.2400
G01 X59.0346 Y61.6765
G01 X59.0448 Y61.6731
G02 X64.5000 Y61.6166 I0.3839 J-226.2063
G01 X64.4690 Y53.0263
G02 X64.4208 Y44.4833 I-1182.7109 J2.3920
G01 X64.4164 Y44.4072
G02 X63.8033 Y44.3830 I-0.6955 J9.8512
G01 X63.1881 Y44.3724
G03 X62.9806 Y44.6379 I-0.9221 J-0.5068
G03 X62.1613 Y44.9587 I-0.8490 J-0.9620
G03 X61.1590 Y44.3205 I0.0320 J-1.1565
G03 X61.1660 Y43.2370 I0.9913 J-0.5354
G03 X61.7281 Y42.7130 I1.1543 J0.6747
G03 X62.5755 Y42.7102 I0.4274 J1.1015
G03 X63.1126 Y43.0902 I-0.3679 J1.0896
G01 X63.2301 Y43.2465
G03 X64.7053 Y43.2972 I-1.4568 J63.8163
G03 X65.2252 Y43.3570 I-0.0249 J2.5092
G03 X65.4983 Y43.6092 I-0.0710 J0.3508
G03 X65.5283 Y44.1926 I-6.1988 J0.6108
G03 X65.5705 Y49.9012 I-430.6317 J6.0395
G03 X65.5966 Y60.8658 I-2094.4759 J10.4565
G03 X65.5799 Y62.1093 I-37.5551 J0.1196
G03 X65.5509 Y62.4249 I-1.6747 J0.0053
G03 X65.4474 Y62.5967 I-0.4267 J-0.1401
G03 X65.2281 Y62.6835 I-0.2626 J-0.3429
G03 X64.5540 Y62.7320 I-0.7429 J-5.6177
G03 X62.2313 Y62.7636 I-3.2936 J-156.6793
G01 X59.2786 Y62.7927
G01 X53.6990 Y65.3484
G01 X48.1096 Y67.9086
G01 X48.0993 Y67.9120
G01 X48.0885 Y67.9131
G01 X41.1683 Y67.8670
G01 X34.2481 Y67.8209
G01 X34.2360 Y67.8193
G03 X32.5297 Y67.1044 I3037.9967 J-7253.6405
G02 X31.6338 Y66.7291 I-3855.7098 J9202.9264
G02 X31.1668 Y66.5336 I-3736.5051 J8920.8128
G01 X29.2980 Y65.7509
G01 X28.7024 Y65.7238
G01 X28.1214 Y65.6974
G03 X27.8466 Y65.9847 I-1.7844 J-1.4321
G03 X26.6703 Y66.1669 I-0.7375 J-0.8733
G03 X26.0237 Y65.5827 I0.4125 J-1.1066
G03 X25.9490 Y64.9388 I1.2743 J-0.4740
G03 X26.2040 Y64.3664 I0.9091 J0.0619
G03 X26.7413 Y64.0272 I0.9138 J0.8523
G00 Z5.0000


(No. 19: Parte 18)
G00 X61.4146 Y31.3269 Z5.0000
G00 Z0.5000
G01 Z0.0000 F350
G01 Z-0.2000
G03 X61.9185 Y30.8768 I0.9536 J0.5603
G03 X62.9217 Y31.0783 I0.3439 J0.8860
G03 X63.2749 Y31.8847 I-0.6467 J0.7637
G03 X62.9544 Y32.5270 I-0.9786 J-0.0872
G02 X62.8099 Y32.8044 I0.3001 J0.3327
G02 X62.7688 Y33.4939 I5.1494 J0.6528
G02 X62.7508 Y35.4045 I298.6460 J3.7618
G03 X63.0493 Y35.6502 I-0.7127 J1.1704
G03 X63.3352 Y36.6476 I-0.9549 J0.8134
G03 X62.7102 Y37.4570 I-1.1630 J-0.2520
G03 X61.8457 Y37.5441 I-0.5328 J-0.9541
G01 X61.6809 Y37.4880
G02 X59.7734 Y38.8757 I60.4479 J85.0957
G02 X59.6873 Y38.9427 I1.5554 J2.0861
G02 X59.6398 Y39.1411 I0.7875 J0.2934
G02 X59.5220 Y40.1962 I13.1884 J2.0066
G03 X59.8264 Y40.5438 I-1.3407 J1.4811
G03 X59.8088 Y41.8037 I-0.9686 J0.6166
G03 X59.3124 Y42.2416 I-0.9409 J-0.5665
G03 X57.7053 Y41.3863 I-0.4532 J-1.0860
G03 X58.2170 Y40.1986 I1.0844 J-0.2369
G01 X58.4200 Y40.0687
G03 X58.5581 Y38.7421 I26.1215 J2.0480
G03 X58.6319 Y38.3868 I1.5906 J0.1452
G03 X58.7281 Y38.2736 I0.2855 J0.1451
G03 X59.8721 Y37.4185 I12.2020 J15.1328
G02 X60.8562 Y36.7021 I-13.9129 J-20.1435
G02 X60.9937 Y36.5652 I-0.4071 J-0.5464
G02 X61.0228 Y36.4453 I-0.1864 J-0.1087
G03 X61.4807 Y35.5013 I1.2931 J0.0442
G01 X61.6411 Y35.3698
G01 X61.6604 Y34.0050
G01 X61.6797 Y32.6368
G03 X61.4379 Y32.3541 I1.3391 J-1.3907
G03 X61.4146 Y31.3269 I0.7675 J-0.5312
G01 Z-0.2500
G03 X61.9185 Y30.8768 I0.9536 J0.5603
G03 X62.9217 Y31.0783 I0.3439 J0.8860
G03 X63.2749 Y31.8847 I-0.6467 J0.7637
G03 X62.9544 Y32.5270 I-0.9786 J-0.0872
G02 X62.8099 Y32.8044 I0.3001 J0.3327
G02 X62.7688 Y33.4939 I5.1494 J0.6528
G02 X62.7508 Y35.4045 I298.6460 J3.7618
G03 X63.0493 Y35.6502 I-0.7127 J1.1704
G03 X63.3352 Y36.6476 I-0.9549 J0.8134
G03 X62.7102 Y37.4570 I-1.1630 J-0.2520
G03 X61.8457 Y37.5441 I-0.5328 J-0.9541
G01 X61.6809 Y37.4880
G02 X59.7734 Y38.8757 I60.4479 J85.0957
G02 X59.6873 Y38.9427 I1.5554 J2.0861
G02 X59.6398 Y39.1411 I0.7875 J0.2934
G02 X59.5220 Y40.1962 I13.1884 J2.0066
G03 X59.8264 Y40.5438 I-1.3407 J1.4811
G03 X59.8088 Y41.8037 I-0.9686 J0.6166
G03 X59.3124 Y42.2416 I-0.9409 J-0.5665
G03 X57.7053 Y41.3863 I-0.4532 J-1.0860
G03 X58.2170 Y40.1986 I1.0844 J-0.2369
G01 X58.4200 Y40.0687
G03 X58.5581 Y38.7421 I26.1215 J2.0480
G03 X58.6319 Y38.3868 I1.5906 J0.1452
G03 X58.7281 Y38.2736 I0.2855 J0.1451
G03 X59.8721 Y37.4185 I12.2020 J15.1328
G02 X60.8562 Y36.7021 I-13.9129 J-20.1435
G02 X60.9937 Y36.5652 I-0.4071 J-0.5464
G02 X61.0228 Y36.4453 I-0.1864 J-0.1087
G03 X61.4807 Y35.5013 I1.2931 J0.0442
G01 X61.6411 Y35.3698
G01 X61.6604 Y34.0050
G01 X61.6797 Y32.6368
G03 X61.4379 Y32.3541 I1.3391 J-1.3907
G03 X61.4146 Y31.3269 I0.7675 J-0.5312
G00 Z5.0000


(No. 20: Parte 19)
G00 X56.2912 Y31.3476 Z5.0000
G00 Z0.5000
G01 Z0.0000 F350
G01 Z-0.2000
G03 X56.7533 Y30.9614 I0.9053 J0.6137
G03 X57.7567 Y31.1629 I0.3441 J0.8859
G03 X58.1121 Y31.8977 I-0.6515 J0.7684
G03 X57.8169 Y32.5838 I-0.9610 J-0.0068
G01 X57.6453 Y32.7554
G01 Y35.3907
G03 X57.9610 Y35.6429 I-0.7359 J1.2448
G03 X58.2560 Y36.6454 I-0.9286 J0.8180
G03 X57.8158 Y37.3404 I-1.1619 J-0.2490
G03 X57.2483 Y37.5899 I-0.7641 J-0.9681
G02 X57.1483 Y37.6875 I0.0610 J0.1625
G02 X56.9046 Y38.1984 I5.9726 J3.1622
G01 X56.6291 Y38.8091
G02 X56.6839 Y43.1207 I148.1411 J0.2736
G01 X57.2019 Y43.1476
G01 X57.7437 Y43.1758
G03 X58.0735 Y42.8510 I2.2733 J1.9783
G03 X59.2833 Y42.7017 I0.7158 J0.8243
G03 X59.9561 Y43.5954 I-0.4551 J1.0427
G03 X59.2811 Y44.8096 I-1.1929 J0.1315
G03 X57.8010 Y44.3508 I-0.4780 J-1.0748
G01 X57.7475 Y44.2665
G03 X56.2294 Y44.2238 I0.2836 J-37.0932
G03 X55.8410 Y44.1793 I0.0176 J-1.8720
G03 X55.6254 Y43.9283 I0.0902 J-0.2956
G03 X55.5745 Y43.4129 I3.2630 J-0.5822
G03 X55.5366 Y41.2120 I86.8396 J-2.5980
G01 X55.5070 Y38.5873
G01 X55.5081 Y38.5763
G02 X56.1160 Y37.2332 I-33.5107 J-15.9770
G02 X56.1465 Y37.1549 I-1.3272 J-0.5613
G02 X56.0362 Y36.8916 I-1.5583 J0.4977
G03 X56.2293 Y35.6781 I1.1001 J-0.4471
G03 X56.5293 Y35.4017 I1.0479 J0.8361
G01 Y32.7315
G03 X56.2784 Y32.4434 I1.3730 J-1.4490
G03 X56.2912 Y31.3476 I0.7622 J-0.5391
G01 Z-0.2500
G03 X56.7533 Y30.9614 I0.9053 J0.6137
G03 X57.7567 Y31.1629 I0.3441 J0.8859
G03 X58.1121 Y31.8977 I-0.6515 J0.7684
G03 X57.8169 Y32.5838 I-0.9610 J-0.0068
G01 X57.6453 Y32.7554
G01 Y35.3907
G03 X57.9610 Y35.6429 I-0.7359 J1.2448
G03 X58.2560 Y36.6454 I-0.9286 J0.8180
G03 X57.8158 Y37.3404 I-1.1619 J-0.2490
G03 X57.2483 Y37.5899 I-0.7641 J-0.9681
G02 X57.1483 Y37.6875 I0.0610 J0.1625
G02 X56.9046 Y38.1984 I5.9726 J3.1622
G01 X56.6291 Y38.8091
G02 X56.6839 Y43.1207 I148.1411 J0.2736
G01 X57.2019 Y43.1476
G01 X57.7437 Y43.1758
G03 X58.0735 Y42.8510 I2.2733 J1.9783
G03 X59.2833 Y42.7017 I0.7158 J0.8243
G03 X59.9561 Y43.5954 I-0.4551 J1.0427
G03 X59.2811 Y44.8096 I-1.1929 J0.1315
G03 X57.8010 Y44.3508 I-0.4780 J-1.0748
G01 X57.7475 Y44.2665
G03 X56.2294 Y44.2238 I0.2836 J-37.0932
G03 X55.8410 Y44.1793 I0.0176 J-1.8720
G03 X55.6254 Y43.9283 I0.0902 J-0.2956
G03 X55.5745 Y43.4129 I3.2630 J-0.5822
G03 X55.5366 Y41.2120 I86.8396 J-2.5980
G01 X55.5070 Y38.5873
G01 X55.5081 Y38.5763
G02 X56.1160 Y37.2332 I-33.5107 J-15.9770
G02 X56.1465 Y37.1549 I-1.3272 J-0.5613
G02 X56.0362 Y36.8916 I-1.5583 J0.4977
G03 X56.2293 Y35.6781 I1.1001 J-0.4471
G03 X56.5293 Y35.4017 I1.0479 J0.8361
G01 Y32.7315
G03 X56.2784 Y32.4434 I1.3730 J-1.4490
G03 X56.2912 Y31.3476 I0.7622 J-0.5391
G00 Z5.0000


(No. 21: Parte 24)
G00 X34.3647 Y56.3924 Z5.0000
G00 Z0.5000
G01 Z0.0000 F350
G01 Z-0.2000
G03 X34.8673 Y56.3182 I0.6275 J2.5136
G01 X35.2521 Y56.2900
G03 X35.4357 Y56.0025 I1.3289 J0.6459
G03 X36.1954 Y55.5890 I0.9399 J0.8222
G03 X37.1507 Y55.9288 I0.1363 J1.1299
G03 X37.4818 Y56.6537 I-1.0510 J0.9180
G03 X36.9115 Y57.7537 I-1.1529 J0.1002
G03 X35.8776 Y57.8092 I-0.5690 J-0.9405
G03 X35.4249 Y57.4980 I0.4238 J-1.1010
G02 X35.2375 Y57.4133 I-0.1701 J0.1269
G02 X34.9046 Y57.4101 I-0.2281 J6.2366
G01 X34.3766 Y57.9564
G01 X33.8482 Y58.5031
G01 X33.9007 Y60.7578
G01 X34.6898 Y62.4544
G01 X35.4580 Y64.1061
G02 X46.6466 Y64.1697 I10.4796 J-859.5899
G01 X52.8460 Y61.3855
G01 X59.0552 Y58.5970
G02 X60.6726 Y58.5161 I-9.7228 J-210.7157
G02 X61.0971 Y58.4759 I-0.1138 J-3.4623
G02 X61.1615 Y58.4529 I-0.0211 J-0.1606
G03 X61.5097 Y58.0887 I1.4421 J1.0301
G03 X62.6915 Y57.9948 I0.6684 J0.9285
G03 X63.3390 Y58.8289 I-0.4781 J1.0395
G03 X62.1392 Y60.1998 I-1.1788 J0.1788
G03 X61.4695 Y59.9386 I0.0462 J-1.1075
G03 X61.1978 Y59.6452 I0.5836 J-0.8128
G02 X61.1104 Y59.6242 I-0.0816 J0.1475
G02 X60.2633 Y59.6506 I-0.0642 J11.5690
G01 X59.3267 Y59.6958
G01 X53.6601 Y62.2390
G01 X53.1946 Y62.4480
G01 X52.7355 Y62.6541
G01 X52.2844 Y62.8565
G01 X51.8431 Y63.0547
G01 X51.4131 Y63.2477
G01 X50.9961 Y63.4350
G01 X50.5937 Y63.6157
G02 X46.8742 Y65.2891 I582.6979 J1300.1325
G01 X46.8635 Y65.2902
G01 X40.9061 Y65.2604
G03 X35.6694 Y65.2203 I0.7140 J-435.2130
G03 X34.9887 Y65.1937 I0.0539 J-10.0857
G03 X34.8117 Y65.1560 I0.0039 J-0.4534
G03 X34.6973 Y65.0125 I0.3238 J-0.3755
G03 X34.1231 Y63.8660 I14.9640 J-8.2106
G03 X32.7932 Y61.0195 I509.1358 J-239.6083
G03 X32.7464 Y58.6120 I93.4734 J-3.0230
G03 X32.7667 Y58.1219 I3.2962 J-0.1092
G03 X32.8598 Y57.9530 I0.3306 J0.0723
G03 X33.5625 Y57.1948 I12.1058 J10.5157
G03 X34.1895 Y56.5376 I17.4530 J16.0203
G03 X34.3647 Y56.3924 I0.5869 J0.5297
G01 Z-0.2500
G03 X34.8673 Y56.3182 I0.6275 J2.5136
G01 X35.2521 Y56.2900
G03 X35.4357 Y56.0025 I1.3289 J0.6459
G03 X36.1954 Y55.5890 I0.9399 J0.8222
G03 X37.1507 Y55.9288 I0.1363 J1.1299
G03 X37.4818 Y56.6537 I-1.0510 J0.9180
G03 X36.9115 Y57.7537 I-1.1529 J0.1002
G03 X35.8776 Y57.8092 I-0.5690 J-0.9405
G03 X35.4249 Y57.4980 I0.4238 J-1.1010
G02 X35.2375 Y57.4133 I-0.1701 J0.1269
G02 X34.9046 Y57.4101 I-0.2281 J6.2366
G01 X34.3766 Y57.9564
G01 X33.8482 Y58.5031
G01 X33.9007 Y60.7578
G01 X34.6898 Y62.4544
G01 X35.4580 Y64.1061
G02 X46.6466 Y64.1697 I10.4796 J-859.5899
G01 X52.8460 Y61.3855
G01 X59.0552 Y58.5970
G02 X60.6726 Y58.5161 I-9.7228 J-210.7157
G02 X61.0971 Y58.4759 I-0.1138 J-3.4623
G02 X61.1615 Y58.4529 I-0.0211 J-0.1606
G03 X61.5097 Y58.0887 I1.4421 J1.0301
G03 X62.6915 Y57.9948 I0.6684 J0.9285
G03 X63.3390 Y58.8289 I-0.4781 J1.0395
G03 X62.1392 Y60.1998 I-1.1788 J0.1788
G03 X61.4695 Y59.9386 I0.0462 J-1.1075
G03 X61.1978 Y59.6452 I0.5836 J-0.8128
G02 X61.1104 Y59.6242 I-0.0816 J0.1475
G02 X60.2633 Y59.6506 I-0.0642 J11.5690
G01 X59.3267 Y59.6958
G01 X53.6601 Y62.2390
G01 X53.1946 Y62.4480
G01 X52.7355 Y62.6541
G01 X52.2844 Y62.8565
G01 X51.8431 Y63.0547
G01 X51.4131 Y63.2477
G01 X50.9961 Y63.4350
G01 X50.5937 Y63.6157
G02 X46.8742 Y65.2891 I582.6979 J1300.1325
G01 X46.8635 Y65.2902
G01 X40.9061 Y65.2604
G03 X35.6694 Y65.2203 I0.7140 J-435.2130
G03 X34.9887 Y65.1937 I0.0539 J-10.0857
G03 X34.8117 Y65.1560 I0.0039 J-0.4534
G03 X34.6973 Y65.0125 I0.3238 J-0.3755
G03 X34.1231 Y63.8660 I14.9640 J-8.2106
G03 X32.7932 Y61.0195 I509.1358 J-239.6083
G03 X32.7464 Y58.6120 I93.4734 J-3.0230
G03 X32.7667 Y58.1219 I3.2962 J-0.1092
G03 X32.8598 Y57.9530 I0.3306 J0.0723
G03 X33.5625 Y57.1948 I12.1058 J10.5157
G03 X34.1895 Y56.5376 I17.4530 J16.0203
G03 X34.3647 Y56.3924 I0.5869 J0.5297
G00 Z5.0000


(No. 22: Parte 23)
G00 X35.7715 Y58.2732 Z5.0000
G00 Z0.5000
G01 Z0.0000 F350
G01 Z-0.2000
G03 X36.9832 Y58.3329 I0.5592 J0.9757
G03 X37.3483 Y58.7308 I-0.8557 J1.1515
G01 X37.3610 Y58.7567
G01 X37.3661 Y58.7684
G02 X37.9372 Y58.8277 I0.6408 J-3.3913
G03 X38.3969 Y58.8925 I-0.0396 J1.9437
G03 X38.5439 Y59.0075 I-0.0609 J0.2294
G03 X39.0458 Y59.8390 I-8.3747 J5.6214
G03 X39.8347 Y61.2701 I-132.4928 J73.9697
G02 X46.2759 Y61.3332 I6.5851 J-343.5719
G01 X52.6305 Y58.7081
G02 X59.0709 Y56.0406 I-804.6106 J-1951.7821
G03 X59.9108 Y55.9853 I0.9884 J8.6018
G03 X61.1490 Y55.9468 I4.4898 J124.4252
G03 X61.8576 Y55.3677 I1.0945 J0.6161
G03 X62.6354 Y55.4343 I0.2893 J1.1961
G03 X63.2000 Y57.0551 I-0.4116 J1.0522
G03 X61.8490 Y57.6048 I-1.0145 J-0.5584
G03 X61.2934 Y57.2431 I0.3061 J-1.0778
G03 X61.1852 Y57.0610 I1.0049 J-0.7200
G01 X60.3059 Y57.0857
G01 X59.4050 Y57.1110
G01 X52.9450 Y59.7801
G01 X46.4765 Y62.4526
G01 X46.4645 Y62.4559
G03 X40.4475 Y62.3982 I2.8066 J-606.4456
G03 X39.4023 Y62.3636 I0.1261 J-19.6066
G03 X39.2394 Y62.3357 I0.0126 J-0.5638
G03 X39.0857 Y62.1609 I0.3665 J-0.4771
G03 X38.4101 Y60.9881 I16.6658 J-10.3818
G02 X37.8775 Y60.0732 I-12.4468 J6.6339
G02 X37.7828 Y59.9518 I-0.5822 J0.3560
G02 X37.6752 Y59.9220 I-0.1354 J0.2798
G02 X37.3814 Y59.9213 I-0.1488 J0.8687
G02 X37.2018 Y60.0504 I0.1792 J0.4388
G03 X36.4941 Y60.4426 I-0.9054 J-0.7992
G03 X35.5898 Y60.1840 I-0.1425 J-1.2119
G03 X35.2126 Y58.9538 I0.6732 J-0.8794
G03 X35.7715 Y58.2732 I1.1262 J0.3552
G01 Z-0.2500
G03 X36.9832 Y58.3329 I0.5592 J0.9757
G03 X37.3483 Y58.7308 I-0.8557 J1.1515
G01 X37.3610 Y58.7567
G01 X37.3661 Y58.7684
G02 X37.9372 Y58.8277 I0.6408 J-3.3913
G03 X38.3969 Y58.8925 I-0.0396 J1.9437
G03 X38.5439 Y59.0075 I-0.0609 J0.2294
G03 X39.0458 Y59.8390 I-8.3747 J5.6214
G03 X39.8347 Y61.2701 I-132.4928 J73.9697
G02 X46.2759 Y61.3332 I6.5851 J-343.5719
G01 X52.6305 Y58.7081
G02 X59.0709 Y56.0406 I-804.6106 J-1951.7821
G03 X59.9108 Y55.9853 I0.9884 J8.6018
G03 X61.1490 Y55.9468 I4.4898 J124.4252
G03 X61.8576 Y55.3677 I1.0945 J0.6161
G03 X62.6354 Y55.4343 I0.2893 J1.1961
G03 X63.2000 Y57.0551 I-0.4116 J1.0522
G03 X61.8490 Y57.6048 I-1.0145 J-0.5584
G03 X61.2934 Y57.2431 I0.3061 J-1.0778
G03 X61.1852 Y57.0610 I1.0049 J-0.7200
G01 X60.3059 Y57.0857
G01 X59.4050 Y57.1110
G01 X52.9450 Y59.7801
G01 X46.4765 Y62.4526
G01 X46.4645 Y62.4559
G03 X40.4475 Y62.3982 I2.8066 J-606.4456
G03 X39.4023 Y62.3636 I0.1261 J-19.6066
G03 X39.2394 Y62.3357 I0.0126 J-0.5638
G03 X39.0857 Y62.1609 I0.3665 J-0.4771
G03 X38.4101 Y60.9881 I16.6658 J-10.3818
G02 X37.8775 Y60.0732 I-12.4468 J6.6339
G02 X37.7828 Y59.9518 I-0.5822 J0.3560
G02 X37.6752 Y59.9220 I-0.1354 J0.2798
G02 X37.3814 Y59.9213 I-0.1488 J0.8687
G02 X37.2018 Y60.0504 I0.1792 J0.4388
G03 X36.4941 Y60.4426 I-0.9054 J-0.7992
G03 X35.5898 Y60.1840 I-0.1425 J-1.2119
G03 X35.2126 Y58.9538 I0.6732 J-0.8794
G03 X35.7715 Y58.2732 I1.1262 J0.3552
G00 Z5.0000


(No. 23: Parte 22)
G00 X43.3130 Y58.3181 Z5.0000
G00 Z0.5000
G01 Z0.0000 F350
G01 Z-0.2000
G03 X44.5269 Y58.2841 I0.6331 J0.9179
G03 X44.9316 Y58.6731 I-0.5840 J1.0124
G02 X45.0374 Y58.6942 I0.0953 J-0.2018
G02 X45.7294 Y58.6680 I-0.0985 J-11.7272
G01 X46.5314 Y58.6244
G01 X59.0448 Y53.5098
G02 X60.8225 Y53.4258 I-2.5618 J-73.0534
G02 X61.1374 Y53.3852 I-0.0311 J-1.4818
G01 X61.1497 Y53.3802
G01 X61.1614 Y53.3729
G03 X61.5036 Y53.0185 I1.1597 J0.7772
G03 X62.1447 Y52.7883 I0.6221 J0.7247
G03 X63.3015 Y53.6017 I-0.0020 J1.2321
G03 X63.0861 Y54.6750 I-1.0595 J0.3457
G03 X62.0865 Y55.1166 I-0.9272 J-0.7466
G03 X61.4692 Y54.8585 I0.0997 J-1.1057
G03 X61.1909 Y54.5588 I0.6433 J-0.8766
G02 X60.9815 Y54.5407 I-0.1578 J0.6035
G02 X59.2710 Y54.6161 I1.7712 J59.5986
G01 X53.0173 Y57.1711
G01 X46.7477 Y59.7326
G02 X45.2558 Y59.8128 I1.9565 J50.3491
G02 X44.9923 Y59.8526 I0.0262 J1.0647
G02 X44.9488 Y59.8997 I0.0475 J0.0876
G03 X44.6214 Y60.2330 I-1.5719 J-1.2166
G03 X43.4394 Y60.3282 I-0.6696 J-0.9289
G03 X42.7919 Y59.4950 I0.4760 J-1.0381
G03 X43.3130 Y58.3181 I1.1813 J-0.1807
G01 Z-0.2500
G03 X44.5269 Y58.2841 I0.6331 J0.9179
G03 X44.9316 Y58.6731 I-0.5840 J1.0124
G02 X45.0374 Y58.6942 I0.0953 J-0.2018
G02 X45.7294 Y58.6680 I-0.0985 J-11.7272
G01 X46.5314 Y58.6244
G01 X59.0448 Y53.5098
G02 X60.8225 Y53.4258 I-2.5618 J-73.0534
G02 X61.1374 Y53.3852 I-0.0311 J-1.4818
G01 X61.1497 Y53.3802
G01 X61.1614 Y53.3729
G03 X61.5036 Y53.0185 I1.1597 J0.7772
G03 X62.1447 Y52.7883 I0.6221 J0.7247
G03 X63.3015 Y53.6017 I-0.0020 J1.2321
G03 X63.0861 Y54.6750 I-1.0595 J0.3457
G03 X62.0865 Y55.1166 I-0.9272 J-0.7466
G03 X61.4692 Y54.8585 I0.0997 J-1.1057
G03 X61.1909 Y54.5588 I0.6433 J-0.8766
G02 X60.9815 Y54.5407 I-0.1578 J0.6035
G02 X59.2710 Y54.6161 I1.7712 J59.5986
G01 X53.0173 Y57.1711
G01 X46.7477 Y59.7326
G02 X45.2558 Y59.8128 I1.9565 J50.3491
G02 X44.9923 Y59.8526 I0.0262 J1.0647
G02 X44.9488 Y59.8997 I0.0475 J0.0876
G03 X44.6214 Y60.2330 I-1.5719 J-1.2166
G03 X43.4394 Y60.3282 I-0.6696 J-0.9289
G03 X42.7919 Y59.4950 I0.4760 J-1.0381
G03 X43.3130 Y58.3181 I1.1813 J-0.1807
G00 Z5.0000


(No. 24: Parte 21)
G00 X43.3372 Y55.7617 Z5.0000
G00 Z0.5000
G01 Z0.0000 F350
G01 Z-0.2000
G03 X44.7729 Y55.9383 I0.6101 J0.9647
G01 X44.8488 Y56.0295
G01 X44.9810 Y56.2072
G01 X46.4295 Y56.1559
G01 X51.5858 Y54.0122
G01 X52.0119 Y53.8350
G01 X52.4369 Y53.6583
G01 X52.8591 Y53.4828
G01 X53.2768 Y53.3091
G01 X53.6884 Y53.1380
G01 X54.0921 Y52.9701
G01 X54.4863 Y52.8061
G01 X54.8693 Y52.6468
G01 X55.2395 Y52.4929
G01 X55.5951 Y52.3450
G01 X55.9345 Y52.2038
G01 X56.2560 Y52.0700
G03 X59.2252 Y50.8352 I1592.2446 J3824.2656
G01 X61.1338 Y50.8346
G03 X61.4917 Y50.4856 I2.3770 J2.0791
G03 X62.1246 Y50.2538 I0.6126 J0.6930
G03 X63.0539 Y50.6360 I0.0210 J1.2699
G03 X62.8815 Y52.3401 I-0.8603 J0.7737
G03 X61.2659 Y52.1202 I-0.6990 J-0.9094
G01 X61.2333 Y52.0712
G01 X61.1588 Y51.9505
G01 X59.4392
G01 X53.0810 Y54.6019
G01 X46.7136 Y57.2572
G03 X45.0182 Y57.3052 I-7.2309 J-225.4400
G03 X44.6767 Y57.6423 I-2.4296 J-2.1192
G03 X43.8332 Y57.9080 I-0.7220 J-0.8204
G03 X42.8811 Y57.2354 I0.1524 J-1.2260
G03 X43.0015 Y56.0780 I1.0572 J-0.4749
G03 X43.3372 Y55.7617 I0.9358 J0.6569
G01 Z-0.2500
G03 X44.7729 Y55.9383 I0.6101 J0.9647
G01 X44.8488 Y56.0295
G01 X44.9810 Y56.2072
G01 X46.4295 Y56.1559
G01 X51.5858 Y54.0122
G01 X52.0119 Y53.8350
G01 X52.4369 Y53.6583
G01 X52.8591 Y53.4828
G01 X53.2768 Y53.3091
G01 X53.6884 Y53.1380
G01 X54.0921 Y52.9701
G01 X54.4863 Y52.8061
G01 X54.8693 Y52.6468
G01 X55.2395 Y52.4929
G01 X55.5951 Y52.3450
G01 X55.9345 Y52.2038
G01 X56.2560 Y52.0700
G03 X59.2252 Y50.8352 I1592.2446 J3824.2656
G01 X61.1338 Y50.8346
G03 X61.4917 Y50.4856 I2.3770 J2.0791
G03 X62.1246 Y50.2538 I0.6126 J0.6930
G03 X63.0539 Y50.6360 I0.0210 J1.2699
G03 X62.8815 Y52.3401 I-0.8603 J0.7737
G03 X61.2659 Y52.1202 I-0.6990 J-0.9094
G01 X61.2333 Y52.0712
G01 X61.1588 Y51.9505
G01 X59.4392
G01 X53.0810 Y54.6019
G01 X46.7136 Y57.2572
G03 X45.0182 Y57.3052 I-7.2309 J-225.4400
G03 X44.6767 Y57.6423 I-2.4296 J-2.1192
G03 X43.8332 Y57.9080 I-0.7220 J-0.8204
G03 X42.8811 Y57.2354 I0.1524 J-1.2260
G03 X43.0015 Y56.0780 I1.0572 J-0.4749
G03 X43.3372 Y55.7617 I0.9358 J0.6569
G00 Z5.0000


(No. 25: Parte 20)
G00 X43.2473 Y53.2913 Z5.0000
G00 Z0.5000
G01 Z0.0000 F350
G01 Z-0.2000
G03 X44.1244 Y53.0577 I0.6943 J0.8436
G03 X44.8297 Y53.4738 I-0.1566 J1.0712
G01 X44.9419 Y53.6325
G01 X45.8911 Y53.6116
G01 X46.8574 Y53.5904
G01 X53.1731 Y50.9191
G01 X59.4975 Y48.2439
G01 X59.5078 Y48.2409
G01 X59.5185 Y48.2400
G01 X61.1413 Y48.2870
G03 X61.4931 Y47.9443 I2.2930 J2.0021
G03 X62.1246 Y47.7141 I0.6103 J0.6932
G03 X63.0538 Y48.0963 I0.0210 J1.2699
G03 X62.8820 Y49.8002 I-0.8612 J0.7738
G03 X61.8452 Y49.9846 I-0.6938 J-0.8941
G03 X61.1630 Y49.4376 I0.3982 J-1.1954
G02 X61.0701 Y49.4009 I-0.1015 J0.1211
G02 X60.4256 Y49.3767 I-0.6307 J8.2084
G01 X59.7004 Y49.3639
G01 X53.4088 Y52.0255
G01 X47.1074 Y54.6911
G02 X45.4487 Y54.7477 I1.5853 J70.8708
G02 X44.9775 Y54.7841 I0.1410 J4.8935
G03 X44.5886 Y55.1737 I-1.4800 J-1.0882
G03 X43.4579 Y55.2560 I-0.6341 J-0.9035
G03 X42.7987 Y54.4452 I0.4610 J-1.0483
G03 X43.2473 Y53.2913 I1.1510 J-0.2167
G01 Z-0.2500
G03 X44.1244 Y53.0577 I0.6943 J0.8436
G03 X44.8297 Y53.4738 I-0.1566 J1.0712
G01 X44.9419 Y53.6325
G01 X45.8911 Y53.6116
G01 X46.8574 Y53.5904
G01 X53.1731 Y50.9191
G01 X59.4975 Y48.2439
G01 X59.5078 Y48.2409
G01 X59.5185 Y48.2400
G01 X61.1413 Y48.2870
G03 X61.4931 Y47.9443 I2.2930 J2.0021
G03 X62.1246 Y47.7141 I0.6103 J0.6932
G03 X63.0538 Y48.0963 I0.0210 J1.2699
G03 X62.8820 Y49.8002 I-0.8612 J0.7738
G03 X61.8452 Y49.9846 I-0.6938 J-0.8941
G03 X61.1630 Y49.4376 I0.3982 J-1.1954
G02 X61.0701 Y49.4009 I-0.1015 J0.1211
G02 X60.4256 Y49.3767 I-0.6307 J8.2084
G01 X59.7004 Y49.3639
G01 X53.4088 Y52.0255
G01 X47.1074 Y54.6911
G02 X45.4487 Y54.7477 I1.5853 J70.8708
G02 X44.9775 Y54.7841 I0.1410 J4.8935
G03 X44.5886 Y55.1737 I-1.4800 J-1.0882
G03 X43.4579 Y55.2560 I-0.6341 J-0.9035
G03 X42.7987 Y54.4452 I0.4610 J-1.0483
G03 X43.2473 Y53.2913 I1.1510 J-0.2167
G00 Z5.0000


(No. 26: Parte 26)
G00 X53.2922 Y30.1721 Z5.0000
G00 Z0.5000
G01 Z0.0000 F350
G01 Z-0.2000
G03 X53.5995 Y29.8522 I1.1872 J0.8330
G02 X54.7173 Y28.8616 I-234.6822 J-265.9463
G03 X55.1455 Y28.5223 I3.0381 J3.3943
G03 X55.2179 Y28.5021 I0.0635 J0.0877
G03 X62.1833 Y28.3848 I14.9438 J680.7528
G03 X67.4311 Y28.3186 I11.7665 J724.6705
G03 X67.8939 Y28.3541 I0.0730 J2.0826
G03 X68.2172 Y28.5937 I-0.1304 J0.5139
G02 X69.8598 Y30.5947 I179.2636 J-145.4780
G03 X70.1758 Y30.9915 I-7.0512 J5.9395
G03 X70.2051 Y31.1993 I-0.7654 J0.2139
G03 X70.2386 Y33.2566 I-71.6975 J2.1969
G03 X70.2877 Y53.5526 I-6426.8213 J25.6764
G01 X70.2907 Y55.4959
G03 X70.2914 Y65.4399 I-1631.0603 J5.0857
G03 X70.2670 Y66.9066 I-32.6885 J0.1886
G01 X70.2595 Y67.0088
G03 X70.1493 Y67.2201 I-0.2693 J-0.0061
G03 X69.7039 Y67.4868 I-1.7274 J-2.3791
G03 X67.9477 Y68.3695 I-43.1017 J-83.5615
G01 X67.9371 Y68.3710
G01 X60.8001 Y68.6072
G01 X60.8147 Y69.6900
G01 X60.8295 Y70.7918
G01 X60.8296 Y70.8049
G01 X60.8275 Y70.8169
G01 X60.3932 Y71.6608
G01 X59.9752 Y72.4710
G01 X60.1109 Y72.6920
G03 X60.2409 Y74.0298 I-1.2322 J0.7950
G03 X59.3857 Y74.8670 I-1.4470 J-0.6227
G03 X58.9084 Y74.9564 I-0.4336 J-0.9961
G03 X58.3437 Y74.8931 I-0.0994 J-1.6642
G03 X57.8405 Y74.6356 I0.8177 J-2.2185
G02 X57.7097 Y74.6531 I-0.0356 J0.2309
G02 X56.8035 Y75.0492 I4.4303 J11.3704
G02 X54.6056 Y76.0718 I474.4456 J1022.5778
G03 X54.5383 Y76.5357 I-2.4037 J-0.1120
G03 X53.6150 Y77.5951 I-1.5095 J-0.3835
G03 X53.1527 Y77.6662 I-0.4040 J-1.0888
G03 X52.7300 Y77.6396 I-0.0999 J-1.7845
G03 X51.6265 Y76.5359 I0.4608 J-1.5642
G03 X51.6004 Y76.0716 I2.0312 J-0.3468
G03 X51.6942 Y75.5960 I1.0424 J-0.0415
G03 X52.4868 Y74.8078 I1.4682 J0.6838
G03 X53.0231 Y74.6920 I0.4940 J0.9874
G03 X53.5877 Y74.7552 I0.0997 J1.6618
G03 X54.0942 Y75.0147 I-0.8277 J2.2393
G02 X54.2229 Y74.9987 I0.0382 J-0.2175
G02 X55.1276 Y74.6024 I-4.3322 J-11.1189
G02 X57.3259 Y73.5767 I-507.7299 J-1091.0735
G03 X57.3875 Y73.1291 I2.5149 J0.1185
G03 X58.7302 Y71.9721 I1.4614 J0.3384
G01 X58.9902 Y71.9503
G01 X59.3438 Y71.2671
G01 X59.7045 Y70.5703
G02 X59.6788 Y69.2274 I-23.7408 J-0.2167
G02 X59.6486 Y68.9152 I-3.8730 J0.2174
G01 X49.2537 Y73.2816
G01 X49.2418 Y73.2849
G01 X41.5396 Y73.2861
G03 X35.1312 Y73.2782 I-1.9045 J-1050.6500
G03 X33.7507 Y73.2494 I-0.1577 J-25.5607
G03 X32.9809 Y73.1491 I0.4951 J-6.8043
G02 X28.8652 Y72.4987 I-1402.1536 J8859.6272
G01 X28.3801 Y72.4221
G01 X27.8815 Y72.3434
G01 X27.3715 Y72.2629
G01 X26.8518 Y72.1809
G01 X26.3242 Y72.0977
G01 X19.8940 Y71.0832
G01 X18.5978 Y71.1120
G01 X17.3214 Y71.1404
G01 X17.1754 Y71.3354
G03 X15.1682 Y71.0222 I-0.9198 J-0.6938
G03 X15.6156 Y69.6718 I1.0321 J-0.4074
G03 X16.5060 Y69.4920 I0.6583 J0.9656
G03 X17.0959 Y69.8319 I-0.2801 J1.1679
G01 X17.2932 Y70.0324
G01 X18.6119 Y70.0016
G01 X19.9569 Y69.9702
G01 X26.9462 Y71.0711
G01 X33.9272 Y72.1707
G01 X49.0259
G01 X53.4126 Y70.3281
G02 X59.2641 Y67.8667 I-3194.6291 J-7603.0354
G03 X60.1508 Y67.5316 I3.8651 J8.8842
G03 X61.5718 Y67.4719 I2.4944 J42.4653
G03 X67.6460 Y67.2660 I69.2780 J1954.0139
G01 X68.4254 Y66.8770
G01 X69.1868 Y66.4970
G02 X69.1586 Y43.4200 I-8643.1735 J-0.9766
G01 X69.1304 Y31.4646
G02 X67.4802 Y29.4607 I-479.8453 J393.4518
G02 X66.8221 Y29.4545 I-0.4588 J13.8626
G02 X61.5158 Y29.5115 I4.1559 J634.1049
G01 X55.5756 Y29.5954
G02 X54.3315 Y30.6929 I156.3892 J178.5331
G01 X54.3620 Y39.1581
G02 X54.4002 Y47.5876 I2525.5918 J-7.2401
G02 X59.2577 Y45.8659 I-146.5695 J-421.2345
G02 X60.8447 Y45.7938 I-1.7961 J-57.0302
G02 X61.1396 Y45.7560 I-0.0396 J-1.4804
G01 X61.1524 Y45.7513
G01 X61.1648 Y45.7443
G03 X61.5096 Y45.3887 I1.5171 J1.1258
G03 X62.6914 Y45.2949 I0.6684 J0.9285
G03 X63.3389 Y46.1289 I-0.4781 J1.0395
G03 X61.8093 Y47.4358 I-1.1631 J0.1873
G03 X61.2329 Y46.9902 I0.3510 J-1.0497
G01 X61.1853 Y46.9012
G01 X60.3875 Y46.9260
G01 X59.5665 Y46.9513
